(/Applications/pcbgcode.repo/pcb-gcode.ulp)
(Copyright 2005 - 2012 by John Johnson)
(See readme.txt for licensing terms.)
(This file generated from the board:)
(.../eurorack/808_Noise/eagle/808_noise.brd)
(Current profile is .../pcbgcode.repo/profiles/mach.pp  )
(This file generated 4/15/16 11:51 PM)
(Settings from pcb-machine.h)
(spindle on time = 0.0000)
(spindle speed = 20000.0000)
(tool change at 0.0000  0.0000  1.5000  )
(feed rate xy = F0     )
(feed rate z  = F20    )
(Z Axis Settings)
(  High     Up        Down     Drill)
(0.2500  	0.0500  	-0.0035 	-0.0730 )
(Settings from pcb-defaults.h)
(isolate min = 0.0050)
(isolate max = 0.0200)
(isolate step = 0.0015)
(Generated bottom outlines, bottom drill, )
(Unit of measure: inch)
( Tool|       Size       |  Min Sub |  Max Sub |   Count )
( T01 | 0.800mm 0.0315in | 0.0000in | 0.0000in |       0 )
( T02 | 0.813mm 0.0320in | 0.0000in | 0.0000in |       0 )
( T03 | 0.914mm 0.0360in | 0.0000in | 0.0000in |       0 )
( T04 | 1.016mm 0.0400in | 0.0000in | 0.0000in |       0 )
( T05 | 1.300mm 0.0512in | 0.0000in | 0.0000in |       0 )
(Inch Mode)
G20
(Absolute Coordinates)
G90
S20000
G00 Z0.2500  
G00 X0.0000  Y0.0000  
M03
G04 P0.000000
M05
G00 Z1.5000  
M06 T01  ; 0.0315  
G01 Z0.0000  F20    
M06 
G00 Z0.0500  
M03
G04 P0.000000
G82 X-0.3000 Y2.6016  Z-0.0730 F20    R0.0500  P0.010000
G82 X-0.3000 Y2.7984  
G82 X-0.8016 Y2.4000  
G82 X-0.9984 Y2.4000  
G82 X-0.4787 Y0.9000  
G82 X-0.3213 Y0.9000  
M05
G00 Z1.5000  
G00 X0.0000  Y0.0000  
M06 T02  ; 0.0320  
G01 Z0.0000  F20    
M06 
G00 Z0.0500  
M03
G04 P0.000000
G82 X-0.3000 Y2.4000  Z-0.0730 F20    R0.0500  P0.010000
G82 X-0.3500 Y2.2500  
G82 X-0.4500 Y2.2500  
G82 X-0.5000 Y2.4000  
G82 X-0.5000 Y2.0750  
G82 X-0.4500 Y2.0000  
G82 X-0.5500 Y2.0000  
G82 X-0.5500 Y1.8000  
G82 X-0.6500 Y1.8000  
G82 X-0.6250 Y1.6250  
G82 X-0.8500 Y1.8000  
G82 X-0.8500 Y1.9000  
G82 X-0.8500 Y2.1000  
G82 X-0.9500 Y2.1000  
G82 X-1.0000 Y2.2500  
G82 X-1.1000 Y2.1500  
G82 X-1.2500 Y2.0000  
G82 X-1.3500 Y2.0000  
G82 X-1.4500 Y2.0000  
G82 X-1.4000 Y2.1500  
G82 X-1.3750 Y1.8500  
G82 X-1.2750 Y1.8500  
G82 X-1.1750 Y1.8500  
G82 X-1.0750 Y1.8500  
G82 X-0.9250 Y1.6250  
G82 X-1.0750 Y1.5500  
G82 X-1.1750 Y1.5500  
G82 X-1.2750 Y1.5500  
G82 X-1.3750 Y1.5500  
G82 X-1.3500 Y1.3500  
G82 X-1.2500 Y1.3500  
G82 X-1.1500 Y1.3500  
G82 X-1.0500 Y1.3500  
G82 X-1.0500 Y1.0500  
G82 X-1.1500 Y1.0500  
G82 X-1.2500 Y1.0500  
G82 X-1.3500 Y1.0500  
G82 X-0.9000 Y1.0000  
G82 X-0.7500 Y0.8500  
G82 X-0.9000 Y0.7000  
G82 X-0.9500 Y0.6000  
G82 X-1.1500 Y0.6000  
G82 X-0.7500 Y0.5500  
G82 X-0.8000 Y2.2500  
M05
G00 Z1.5000  
G00 X0.0000  Y0.0000  
M06 T03  ; 0.0360  
G01 Z0.0000  F20    
M06 
G00 Z0.0500  
M03
G04 P0.000000
G82 X-0.3250 Y0.1500  Z-0.0730 F20    R0.0500  P0.010000
G82 X-0.4250 Y0.1500  
G82 X-0.4250 Y0.2500  
G82 X-0.3250 Y0.2500  
G82 X-0.5250 Y0.2500  
G82 X-0.6250 Y0.2500  
G82 X-0.7250 Y0.2500  
G82 X-0.8250 Y0.2500  
G82 X-0.8250 Y0.1500  
G82 X-0.7250 Y0.1500  
G82 X-0.6250 Y0.1500  
G82 X-0.5250 Y0.1500  
G82 X-0.9250 Y0.1500  
G82 X-1.0250 Y0.1500  
G82 X-1.0250 Y0.2500  
G82 X-0.9250 Y0.2500  
G82 X-1.1250 Y0.2500  
G82 X-1.1250 Y0.1500  
G82 X-1.2250 Y0.1500  
G82 X-1.2250 Y0.2500  
M05
G00 Z1.5000  
G00 X0.0000  Y0.0000  
M06 T04  ; 0.0400  
G01 Z0.0000  F20    
M06 
G00 Z0.0500  
M03
G04 P0.000000
G82 X-0.6500 Y2.6500  Z-0.0730 F20    R0.0500  P0.010000
G82 X-0.7500 Y2.6500  
G82 X-0.8500 Y2.6500  
G82 X-0.9500 Y2.6500  
G82 X-0.9500 Y2.7500  
G82 X-0.8500 Y2.7500  
G82 X-0.7500 Y2.7500  
G82 X-0.6500 Y2.7500  
G82 X-1.0500 Y2.7500  
G82 X-1.1500 Y2.7500  
G82 X-1.1500 Y2.6500  
G82 X-1.0500 Y2.6500  
G82 X-1.2500 Y2.6500  
G82 X-1.2500 Y2.7500  
G82 X-1.3500 Y2.7500  
G82 X-1.3500 Y2.6500  
M05
G00 Z1.5000  
G00 X0.0000  Y0.0000  
M06 T05  ; 0.0512  
G01 Z0.0000  F20    
M06 
G00 Z0.0500  
M03
G04 P0.000000
G82 X-0.0980 Y0.5630  Z-0.0730 F20    R0.0500  P0.010000
G82 X-0.0984 Y0.5969  
G82 X-0.0980 Y0.6300  
G82 X-0.4980 Y0.3920  
G82 X-0.5315 Y0.3921  
G82 X-0.5650 Y0.3920  
G82 X-0.6180 Y0.5640  
G82 X-0.6181 Y0.5969  
G82 X-0.6180 Y0.6300  
G82 X-0.5650 Y1.0920  
G82 X-0.5315 Y1.0921  
G82 X-0.4980 Y1.0920  
G82 X-0.6180 Y1.2640  
G82 X-0.6181 Y1.2969  
G82 X-0.6180 Y1.3300  
G82 X-0.0980 Y1.3300  
G82 X-0.0984 Y1.2969  
G82 X-0.0980 Y1.2630  
T01 
G00 Z0.2500  
M05
M02
