(/Applications/pcbgcode.repo/pcb-gcode.ulp)
(Copyright 2005 - 2012 by John Johnson)
(See readme.txt for licensing terms.)
(This file generated from the board:)
(.../eurorack/808_Noise/eagle/808_noise.brd)
(Current profile is .../pcbgcode.repo/profiles/mach.pp  )
(This file generated 4/15/16 11:50 PM)
(Settings from pcb-machine.h)
(spindle on time = 0.0000)
(  Tool Size)
(0.0030  )
(spindle speed = 30000.0000)
(tool change at 0.0000  0.0000  1.5000  )
(feed rate xy = F20    )
(feed rate z  = F10    )
(Z Axis Settings)
(  High     Up        Down     Drill)
(0.2500  	0.0500  	-0.0035 	-0.0730 )
(Settings from pcb-defaults.h)
(isolate min = 0.0050)
(isolate max = 0.0200)
(isolate step = 0.0015)
(Generated bottom outlines, bottom drill, )
(Unit of measure: inch)
(Inch Mode)
G20
(Absolute Coordinates)
G90
S30000
G00 Z0.2500  
G00 X0.0000  Y0.0000  
M03
G04 P0.000000
G00 Z0.0500  
G00 X-0.2704 Y0.1226  
G01 Z-0.0035 F10    
G01 X-0.2696 Y0.1238  F20    
G01 X-0.2687 Y0.1248  
G01 X-0.2680 Y0.1262  
G01 X-0.2671 Y0.1276  
G01 X-0.2667 Y0.1289  
G01 X-0.2184 Y0.2253  
G01 X-0.2181 Y0.2258  
G01 X-0.2171 Y0.2279  
G01 X-0.2161 Y0.2301  
G01 X-0.2159 Y0.2307  
G01 X-0.2157 Y0.2312  
G01 X-0.2153 Y0.2335  
G01 X-0.2149 Y0.2359  
G01 X-0.2149 Y0.2365  
G01 X-0.2148 Y0.2370  
G01 X-0.2151 Y0.2394  
G01 X-0.2152 Y0.2418  
G01 X-0.2154 Y0.2424  
G01 X-0.2276 Y0.3518  
G01 X-0.2277 Y0.3541  
G01 X-0.2279 Y0.3547  
G01 X-0.2280 Y0.3554  
G01 X-0.2288 Y0.3576  
G01 X-0.2295 Y0.3597  
G01 X-0.2299 Y0.3603  
G01 X-0.2301 Y0.3609  
G01 X-0.2315 Y0.3628  
G01 X-0.2327 Y0.3647  
G01 X-0.2332 Y0.3652  
G01 X-0.2336 Y0.3657  
G01 X-0.2354 Y0.3671  
G01 X-0.4554 Y0.5660  
G01 X-0.4566 Y0.5673  
G01 X-0.4575 Y0.5679  
G01 X-0.4584 Y0.5687  
G01 X-0.4600 Y0.5695  
G01 X-0.4616 Y0.5705  
G01 X-0.4627 Y0.5709  
G01 X-0.4636 Y0.5714  
G01 X-0.4655 Y0.5718  
G01 X-0.5616 Y0.6024  
G01 X-0.5616 Y0.6384  
G01 X-0.4253 Y0.7311  
G01 X-0.4232 Y0.7324  
G01 X-0.4228 Y0.7328  
G01 X-0.4224 Y0.7331  
G01 X-0.4208 Y0.7349  
G01 X-0.4191 Y0.7367  
G01 X-0.4189 Y0.7372  
G01 X-0.4185 Y0.7375  
G01 X-0.4175 Y0.7398  
G01 X-0.4163 Y0.7419  
G01 X-0.4162 Y0.7424  
G01 X-0.4160 Y0.7429  
G01 X-0.4155 Y0.7453  
G01 X-0.3532 Y1.0070  
G01 X-0.3525 Y1.0095  
G01 X-0.3525 Y1.0099  
G01 X-0.3524 Y1.0102  
G01 X-0.3525 Y1.0128  
G01 X-0.3525 Y1.1614  
G01 X-0.3523 Y1.1633  
G01 X-0.3525 Y1.1644  
G01 X-0.3525 Y1.1655  
G01 X-0.3530 Y1.1673  
G01 X-0.3533 Y1.1691  
G01 X-0.3537 Y1.1701  
G01 X-0.3540 Y1.1712  
G01 X-0.3550 Y1.1728  
G01 X-0.4787 Y1.4451  
G01 X-0.4790 Y1.4462  
G01 X-0.4800 Y1.4478  
G01 X-0.4807 Y1.4495  
G01 X-0.4814 Y1.4504  
G01 X-0.4820 Y1.4513  
G01 X-0.4833 Y1.4526  
G01 X-0.4845 Y1.4541  
G01 X-0.4854 Y1.4547  
G01 X-0.4862 Y1.4555  
G01 X-0.4878 Y1.4564  
G01 X-0.4893 Y1.4575  
G01 X-0.4904 Y1.4579  
G01 X-0.4913 Y1.4585  
G01 X-0.4931 Y1.4590  
G01 X-0.4949 Y1.4596  
G01 X-0.4960 Y1.4597  
G01 X-0.4970 Y1.4600  
G01 X-0.4989 Y1.4600  
G01 X-0.5008 Y1.4602  
G01 X-0.5019 Y1.4600  
G01 X-0.6905 Y1.4600  
G01 X-0.6962 Y1.4585  
G01 X-0.7013 Y1.4555  
G01 X-0.7391 Y1.4177  
G01 X-0.7395 Y1.4174  
G01 X-0.7412 Y1.4156  
G01 X-0.7430 Y1.4138  
G01 X-0.7432 Y1.4134  
G01 X-0.8846 Y1.2603  
G01 X-1.2764 Y1.2722  
G01 X-1.3174 Y1.3234  
G01 X-1.3175 Y1.3237  
G01 X-1.3175 Y1.3792  
G01 X-1.3187 Y1.3855  
G01 X-1.3212 Y1.3914  
G01 X-1.3248 Y1.3967  
G01 X-1.3293 Y1.4012  
G01 X-1.3341 Y1.4045  
G01 X-1.3497 Y1.5293  
G01 X-1.3425 Y1.5365  
G01 X-1.3425 Y1.5635  
G01 X-1.3615 Y1.5825  
G01 X-1.3885 Y1.5825  
G01 X-1.4075 Y1.5635  
G01 X-1.4075 Y1.5365  
G01 X-1.3943 Y1.5234  
G01 X-1.3780 Y1.3926  
G01 X-1.3788 Y1.3914  
G01 X-1.3813 Y1.3855  
G01 X-1.3825 Y1.3792  
G01 X-1.3825 Y1.3208  
G01 X-1.3813 Y1.3145  
G01 X-1.3788 Y1.3086  
G01 X-1.3752 Y1.3033  
G01 X-1.3707 Y1.2988  
G01 X-1.3654 Y1.2952  
G01 X-1.3595 Y1.2927  
G01 X-1.3532 Y1.2915  
G01 X-1.3495 Y1.2915  
G01 X-1.3063 Y1.2375  
G01 X-1.3059 Y1.2367  
G01 X-1.3045 Y1.2352  
G01 X-1.3032 Y1.2336  
G01 X-1.3025 Y1.2331  
G01 X-1.3019 Y1.2324  
G01 X-1.3001 Y1.2313  
G01 X-1.2984 Y1.2301  
G01 X-1.2976 Y1.2298  
G01 X-1.2968 Y1.2293  
G01 X-1.2948 Y1.2287  
G01 X-1.2929 Y1.2280  
G01 X-1.2920 Y1.2279  
G01 X-1.2911 Y1.2276  
G01 X-1.2891 Y1.2275  
G01 X-1.2870 Y1.2273  
G01 X-1.2861 Y1.2274  
G01 X-0.8778 Y1.2151  
G01 X-0.8771 Y1.2149  
G01 X-0.8749 Y1.2150  
G01 X-0.8727 Y1.2149  
G01 X-0.8719 Y1.2151  
G01 X-0.8711 Y1.2151  
G01 X-0.8691 Y1.2158  
G01 X-0.8670 Y1.2163  
G01 X-0.8662 Y1.2167  
G01 X-0.8655 Y1.2169  
G01 X-0.8636 Y1.2181  
G01 X-0.8617 Y1.2191  
G01 X-0.8612 Y1.2196  
G01 X-0.8605 Y1.2201  
G01 X-0.8590 Y1.2217  
G01 X-0.8574 Y1.2231  
G01 X-0.8570 Y1.2238  
G01 X-0.7088 Y1.3844  
G01 X-0.6782 Y1.4150  
G01 X-0.5145 Y1.4150  
G01 X-0.3975 Y1.1576  
G01 X-0.3975 Y1.0151  
G01 X-0.4574 Y0.7637  
G01 X-0.5750 Y0.6837  
G01 X-0.5813 Y0.6899  
G01 X-0.5885 Y0.6952  
G01 X-0.5964 Y0.6992  
G01 X-0.6049 Y0.7020  
G01 X-0.6137 Y0.7034  
G01 X-0.6215 Y0.7034  
G01 X-0.7053 Y0.7872  
G01 X-0.7207 Y0.8333  
G01 X-0.7175 Y0.8365  
G01 X-0.7175 Y0.8635  
G01 X-0.7365 Y0.8825  
G01 X-0.7635 Y0.8825  
G01 X-0.7825 Y0.8635  
G01 X-0.7825 Y0.8365  
G01 X-0.7635 Y0.8175  
G01 X-0.7629 Y0.8175  
G01 X-0.7466 Y0.7685  
G01 X-0.7460 Y0.7663  
G01 X-0.7456 Y0.7657  
G01 X-0.7454 Y0.7651  
G01 X-0.7441 Y0.7632  
G01 X-0.7430 Y0.7612  
G01 X-0.7425 Y0.7607  
G01 X-0.7421 Y0.7601  
G01 X-0.7404 Y0.7586  
G01 X-0.6630 Y0.6812  
G01 X-0.6664 Y0.6765  
G01 X-0.6705 Y0.6685  
G01 X-0.6732 Y0.6601  
G01 X-0.6746 Y0.6513  
G01 X-0.6746 Y0.5424  
G01 X-0.6732 Y0.5336  
G01 X-0.6705 Y0.5252  
G01 X-0.6664 Y0.5172  
G01 X-0.6612 Y0.5100  
G01 X-0.6549 Y0.5038  
G01 X-0.6477 Y0.4985  
G01 X-0.6398 Y0.4945  
G01 X-0.6313 Y0.4917  
G01 X-0.6226 Y0.4904  
G01 X-0.6137 Y0.4904  
G01 X-0.6049 Y0.4917  
G01 X-0.5964 Y0.4945  
G01 X-0.5885 Y0.4985  
G01 X-0.5813 Y0.5038  
G01 X-0.5750 Y0.5100  
G01 X-0.5698 Y0.5172  
G01 X-0.5657 Y0.5252  
G01 X-0.5630 Y0.5336  
G01 X-0.5616 Y0.5424  
G01 X-0.5616 Y0.5552  
G01 X-0.4827 Y0.5300  
G01 X-0.2714 Y0.3390  
G01 X-0.2606 Y0.2416  
G01 X-0.2963 Y0.1701  
G01 X-0.3107 Y0.1845  
G01 X-0.3393 Y0.1845  
G01 X-0.3513 Y0.1725  
G01 X-0.3987 Y0.1725  
G01 X-0.4107 Y0.1845  
G01 X-0.4393 Y0.1845  
G01 X-0.4513 Y0.1725  
G01 X-0.4987 Y0.1725  
G01 X-0.5107 Y0.1845  
G01 X-0.5393 Y0.1845  
G01 X-0.5513 Y0.1725  
G01 X-0.5987 Y0.1725  
G01 X-0.6107 Y0.1845  
G01 X-0.6393 Y0.1845  
G01 X-0.6513 Y0.1725  
G01 X-0.6987 Y0.1725  
G01 X-0.7107 Y0.1845  
G01 X-0.7393 Y0.1845  
G01 X-0.7513 Y0.1725  
G01 X-0.7987 Y0.1725  
G01 X-0.8107 Y0.1845  
G01 X-0.8393 Y0.1845  
G01 X-0.8513 Y0.1725  
G01 X-0.8987 Y0.1725  
G01 X-0.9107 Y0.1845  
G01 X-0.9393 Y0.1845  
G01 X-0.9513 Y0.1725  
G01 X-0.9987 Y0.1725  
G01 X-1.0107 Y0.1845  
G01 X-1.0393 Y0.1845  
G01 X-1.0513 Y0.1725  
G01 X-1.0987 Y0.1725  
G01 X-1.1107 Y0.1845  
G01 X-1.1393 Y0.1845  
G01 X-1.1513 Y0.1725  
G01 X-1.1987 Y0.1725  
G01 X-1.2107 Y0.1845  
G01 X-1.2393 Y0.1845  
G01 X-1.2595 Y0.1643  
G01 X-1.2595 Y0.1357  
G01 X-1.2393 Y0.1155  
G01 X-1.2107 Y0.1155  
G01 X-1.1987 Y0.1275  
G01 X-1.1513 Y0.1275  
G01 X-1.1393 Y0.1155  
G01 X-1.1107 Y0.1155  
G01 X-1.0987 Y0.1275  
G01 X-1.0513 Y0.1275  
G01 X-1.0393 Y0.1155  
G01 X-1.0107 Y0.1155  
G01 X-0.9987 Y0.1275  
G01 X-0.9513 Y0.1275  
G01 X-0.9393 Y0.1155  
G01 X-0.9107 Y0.1155  
G01 X-0.8987 Y0.1275  
G01 X-0.8513 Y0.1275  
G01 X-0.8393 Y0.1155  
G01 X-0.8107 Y0.1155  
G01 X-0.7987 Y0.1275  
G01 X-0.7513 Y0.1275  
G01 X-0.7393 Y0.1155  
G01 X-0.7107 Y0.1155  
G01 X-0.6987 Y0.1275  
G01 X-0.6513 Y0.1275  
G01 X-0.6393 Y0.1155  
G01 X-0.6107 Y0.1155  
G01 X-0.5987 Y0.1275  
G01 X-0.5513 Y0.1275  
G01 X-0.5393 Y0.1155  
G01 X-0.5107 Y0.1155  
G01 X-0.4987 Y0.1275  
G01 X-0.4513 Y0.1275  
G01 X-0.4393 Y0.1155  
G01 X-0.4107 Y0.1155  
G01 X-0.3987 Y0.1275  
G01 X-0.3513 Y0.1275  
G01 X-0.3393 Y0.1155  
G01 X-0.3107 Y0.1155  
G01 X-0.3062 Y0.1200  
G01 X-0.2961 Y0.1167  
G01 X-0.2949 Y0.1161  
G01 X-0.2933 Y0.1157  
G01 X-0.2918 Y0.1152  
G01 X-0.2904 Y0.1151  
G01 X-0.2891 Y0.1149  
G01 X-0.2875 Y0.1150  
G01 X-0.2859 Y0.1149  
G01 X-0.2846 Y0.1151  
G01 X-0.2832 Y0.1152  
G01 X-0.2817 Y0.1157  
G01 X-0.2801 Y0.1161  
G01 X-0.2789 Y0.1167  
G01 X-0.2776 Y0.1171  
G01 X-0.2762 Y0.1180  
G01 X-0.2748 Y0.1187  
G01 X-0.2738 Y0.1196  
G01 X-0.2726 Y0.1204  
G01 X-0.2716 Y0.1216  
G01 X-0.2704 Y0.1226  
G00 Z0.0500  
G00 X-0.2905 Y0.2357  
G01 Z-0.0035 F10    
G01 X-0.2905 Y0.2643  F20    
G01 X-0.3107 Y0.2845  
G01 X-0.3393 Y0.2845  
G01 X-0.3513 Y0.2725  
G01 X-0.3987 Y0.2725  
G01 X-0.4107 Y0.2845  
G01 X-0.4393 Y0.2845  
G01 X-0.4513 Y0.2725  
G01 X-0.4987 Y0.2725  
G01 X-0.5107 Y0.2845  
G01 X-0.5393 Y0.2845  
G01 X-0.5513 Y0.2725  
G01 X-0.5987 Y0.2725  
G01 X-0.6107 Y0.2845  
G01 X-0.6393 Y0.2845  
G01 X-0.6513 Y0.2725  
G01 X-0.6987 Y0.2725  
G01 X-0.7107 Y0.2845  
G01 X-0.7315 Y0.2845  
G01 X-1.1175 Y0.6024  
G01 X-1.1175 Y0.6135  
G01 X-1.1275 Y0.6235  
G01 X-1.1275 Y1.0005  
G01 X-1.1248 Y1.0033  
G01 X-1.1212 Y1.0086  
G01 X-1.1187 Y1.0145  
G01 X-1.1175 Y1.0208  
G01 X-1.1175 Y1.0792  
G01 X-1.1187 Y1.0855  
G01 X-1.1212 Y1.0914  
G01 X-1.1234 Y1.0947  
G01 X-1.0907 Y1.1275  
G01 X-0.7970 Y1.1275  
G01 X-0.7913 Y1.1290  
G01 X-0.7862 Y1.1320  
G01 X-0.7820 Y1.1362  
G01 X-0.6746 Y1.2436  
G01 X-0.6746 Y1.2424  
G01 X-0.6732 Y1.2336  
G01 X-0.6705 Y1.2252  
G01 X-0.6664 Y1.2172  
G01 X-0.6612 Y1.2100  
G01 X-0.6549 Y1.2038  
G01 X-0.6477 Y1.1985  
G01 X-0.6398 Y1.1945  
G01 X-0.6313 Y1.1917  
G01 X-0.6226 Y1.1904  
G01 X-0.6137 Y1.1904  
G01 X-0.6049 Y1.1917  
G01 X-0.5964 Y1.1945  
G01 X-0.5885 Y1.1985  
G01 X-0.5813 Y1.2038  
G01 X-0.5750 Y1.2100  
G01 X-0.5698 Y1.2172  
G01 X-0.5657 Y1.2252  
G01 X-0.5630 Y1.2336  
G01 X-0.5616 Y1.2424  
G01 X-0.5616 Y1.3513  
G01 X-0.5630 Y1.3601  
G01 X-0.5657 Y1.3685  
G01 X-0.5698 Y1.3765  
G01 X-0.5750 Y1.3837  
G01 X-0.5813 Y1.3899  
G01 X-0.5885 Y1.3952  
G01 X-0.5964 Y1.3992  
G01 X-0.6049 Y1.4020  
G01 X-0.6137 Y1.4034  
G01 X-0.6226 Y1.4034  
G01 X-0.6313 Y1.4020  
G01 X-0.6398 Y1.3992  
G01 X-0.6477 Y1.3952  
G01 X-0.6549 Y1.3899  
G01 X-0.6612 Y1.3837  
G01 X-0.6664 Y1.3765  
G01 X-0.6705 Y1.3685  
G01 X-0.6732 Y1.3601  
G01 X-0.6746 Y1.3513  
G01 X-0.6746 Y1.3072  
G01 X-0.8093 Y1.1725  
G01 X-1.1030 Y1.1725  
G01 X-1.1087 Y1.1710  
G01 X-1.1138 Y1.1680  
G01 X-1.1638 Y1.1180  
G01 X-1.1680 Y1.1138  
G01 X-1.1710 Y1.1087  
G01 X-1.1725 Y1.1030  
G01 X-1.1725 Y1.0995  
G01 X-1.1752 Y1.0967  
G01 X-1.1788 Y1.0914  
G01 X-1.1813 Y1.0855  
G01 X-1.1825 Y1.0792  
G01 X-1.1825 Y1.0725  
G01 X-1.2175 Y1.0725  
G01 X-1.2175 Y1.0792  
G01 X-1.2187 Y1.0855  
G01 X-1.2212 Y1.0914  
G01 X-1.2248 Y1.0967  
G01 X-1.2293 Y1.1012  
G01 X-1.2346 Y1.1048  
G01 X-1.2405 Y1.1073  
G01 X-1.2468 Y1.1085  
G01 X-1.2532 Y1.1085  
G01 X-1.2595 Y1.1073  
G01 X-1.2654 Y1.1048  
G01 X-1.2707 Y1.1012  
G01 X-1.2752 Y1.0967  
G01 X-1.2788 Y1.0914  
G01 X-1.2813 Y1.0855  
G01 X-1.2825 Y1.0792  
G01 X-1.2825 Y1.0208  
G01 X-1.2813 Y1.0145  
G01 X-1.2788 Y1.0086  
G01 X-1.2752 Y1.0033  
G01 X-1.2707 Y0.9988  
G01 X-1.2654 Y0.9952  
G01 X-1.2595 Y0.9927  
G01 X-1.2532 Y0.9915  
G01 X-1.2468 Y0.9915  
G01 X-1.2405 Y0.9927  
G01 X-1.2346 Y0.9952  
G01 X-1.2293 Y0.9988  
G01 X-1.2248 Y1.0033  
G01 X-1.2212 Y1.0086  
G01 X-1.2187 Y1.0145  
G01 X-1.2175 Y1.0208  
G01 X-1.2175 Y1.0275  
G01 X-1.1825 Y1.0275  
G01 X-1.1825 Y1.0208  
G01 X-1.1813 Y1.0145  
G01 X-1.1788 Y1.0086  
G01 X-1.1752 Y1.0033  
G01 X-1.1725 Y1.0005  
G01 X-1.1725 Y0.6235  
G01 X-1.1825 Y0.6135  
G01 X-1.1825 Y0.5865  
G01 X-1.1635 Y0.5675  
G01 X-1.1459 Y0.5675  
G01 X-0.7877 Y0.2725  
G01 X-0.7987 Y0.2725  
G01 X-0.8107 Y0.2845  
G01 X-0.8393 Y0.2845  
G01 X-0.8513 Y0.2725  
G01 X-0.8987 Y0.2725  
G01 X-0.9107 Y0.2845  
G01 X-0.9393 Y0.2845  
G01 X-0.9513 Y0.2725  
G01 X-0.9987 Y0.2725  
G01 X-1.0107 Y0.2845  
G01 X-1.0393 Y0.2845  
G01 X-1.0513 Y0.2725  
G01 X-1.0987 Y0.2725  
G01 X-1.1107 Y0.2845  
G01 X-1.1393 Y0.2845  
G01 X-1.1513 Y0.2725  
G01 X-1.1987 Y0.2725  
G01 X-1.2107 Y0.2845  
G01 X-1.2393 Y0.2845  
G01 X-1.2595 Y0.2643  
G01 X-1.2595 Y0.2357  
G01 X-1.2393 Y0.2155  
G01 X-1.2107 Y0.2155  
G01 X-1.1987 Y0.2275  
G01 X-1.1513 Y0.2275  
G01 X-1.1393 Y0.2155  
G01 X-1.1107 Y0.2155  
G01 X-1.0987 Y0.2275  
G01 X-1.0513 Y0.2275  
G01 X-1.0393 Y0.2155  
G01 X-1.0107 Y0.2155  
G01 X-0.9987 Y0.2275  
G01 X-0.9513 Y0.2275  
G01 X-0.9393 Y0.2155  
G01 X-0.9107 Y0.2155  
G01 X-0.8987 Y0.2275  
G01 X-0.8513 Y0.2275  
G01 X-0.8393 Y0.2155  
G01 X-0.8107 Y0.2155  
G01 X-0.7987 Y0.2275  
G01 X-0.7513 Y0.2275  
G01 X-0.7393 Y0.2155  
G01 X-0.7107 Y0.2155  
G01 X-0.6987 Y0.2275  
G01 X-0.6513 Y0.2275  
G01 X-0.6393 Y0.2155  
G01 X-0.6107 Y0.2155  
G01 X-0.5987 Y0.2275  
G01 X-0.5513 Y0.2275  
G01 X-0.5393 Y0.2155  
G01 X-0.5107 Y0.2155  
G01 X-0.4987 Y0.2275  
G01 X-0.4513 Y0.2275  
G01 X-0.4393 Y0.2155  
G01 X-0.4107 Y0.2155  
G01 X-0.3987 Y0.2275  
G01 X-0.3513 Y0.2275  
G01 X-0.3393 Y0.2155  
G01 X-0.3107 Y0.2155  
G01 X-0.2905 Y0.2357  
G00 Z0.0500  
G00 X-0.4384 Y0.3553  
G01 Z-0.0035 F10    
G01 X-0.4332 Y0.3625  F20    
G01 X-0.4291 Y0.3704  
G01 X-0.4264 Y0.3789  
G01 X-0.4250 Y0.3877  
G01 X-0.4250 Y0.3966  
G01 X-0.4264 Y0.4054  
G01 X-0.4291 Y0.4138  
G01 X-0.4332 Y0.4217  
G01 X-0.4384 Y0.4289  
G01 X-0.4447 Y0.4352  
G01 X-0.4519 Y0.4404  
G01 X-0.4598 Y0.4445  
G01 X-0.4683 Y0.4472  
G01 X-0.4770 Y0.4486  
G01 X-0.5859 Y0.4486  
G01 X-0.5947 Y0.4472  
G01 X-0.6032 Y0.4445  
G01 X-0.6111 Y0.4404  
G01 X-0.6183 Y0.4352  
G01 X-0.6246 Y0.4289  
G01 X-0.6298 Y0.4217  
G01 X-0.6339 Y0.4138  
G01 X-0.6366 Y0.4054  
G01 X-0.6380 Y0.3966  
G01 X-0.6380 Y0.3877  
G01 X-0.6366 Y0.3789  
G01 X-0.6339 Y0.3704  
G01 X-0.6298 Y0.3625  
G01 X-0.6246 Y0.3553  
G01 X-0.6183 Y0.3490  
G01 X-0.6111 Y0.3438  
G01 X-0.6032 Y0.3398  
G01 X-0.5947 Y0.3370  
G01 X-0.5859 Y0.3356  
G01 X-0.4770 Y0.3356  
G01 X-0.4683 Y0.3370  
G01 X-0.4598 Y0.3398  
G01 X-0.4519 Y0.3438  
G01 X-0.4447 Y0.3490  
G01 X-0.4384 Y0.3553  
G00 Z0.0500  
G00 X-0.1352 Y0.5038  
G01 Z-0.0035 F10    
G01 X-0.1280 Y0.4985  F20    
G01 X-0.1201 Y0.4945  
G01 X-0.1117 Y0.4917  
G01 X-0.1029 Y0.4904  
G01 X-0.0940 Y0.4904  
G01 X-0.0852 Y0.4917  
G01 X-0.0767 Y0.4945  
G01 X-0.0688 Y0.4985  
G01 X-0.0616 Y0.5038  
G01 X-0.0553 Y0.5100  
G01 X-0.0501 Y0.5172  
G01 X-0.0461 Y0.5252  
G01 X-0.0433 Y0.5336  
G01 X-0.0419 Y0.5424  
G01 X-0.0419 Y0.6513  
G01 X-0.0433 Y0.6601  
G01 X-0.0461 Y0.6685  
G01 X-0.0501 Y0.6765  
G01 X-0.0553 Y0.6837  
G01 X-0.0616 Y0.6899  
G01 X-0.0688 Y0.6952  
G01 X-0.0767 Y0.6992  
G01 X-0.0852 Y0.7020  
G01 X-0.0926 Y0.7031  
G01 X-0.2861 Y0.8966  
G01 X-0.1906 Y1.3025  
G01 X-0.1549 Y1.3025  
G01 X-0.1549 Y1.2424  
G01 X-0.1535 Y1.2336  
G01 X-0.1508 Y1.2252  
G01 X-0.1467 Y1.2172  
G01 X-0.1415 Y1.2100  
G01 X-0.1352 Y1.2038  
G01 X-0.1280 Y1.1985  
G01 X-0.1201 Y1.1945  
G01 X-0.1117 Y1.1917  
G01 X-0.1029 Y1.1904  
G01 X-0.0940 Y1.1904  
G01 X-0.0852 Y1.1917  
G01 X-0.0767 Y1.1945  
G01 X-0.0688 Y1.1985  
G01 X-0.0616 Y1.2038  
G01 X-0.0553 Y1.2100  
G01 X-0.0501 Y1.2172  
G01 X-0.0461 Y1.2252  
G01 X-0.0433 Y1.2336  
G01 X-0.0419 Y1.2424  
G01 X-0.0419 Y1.3513  
G01 X-0.0433 Y1.3601  
G01 X-0.0461 Y1.3685  
G01 X-0.0501 Y1.3765  
G01 X-0.0553 Y1.3837  
G01 X-0.0616 Y1.3899  
G01 X-0.0688 Y1.3952  
G01 X-0.0767 Y1.3992  
G01 X-0.0852 Y1.4020  
G01 X-0.0940 Y1.4034  
G01 X-0.1029 Y1.4034  
G01 X-0.1117 Y1.4020  
G01 X-0.1201 Y1.3992  
G01 X-0.1280 Y1.3952  
G01 X-0.1352 Y1.3899  
G01 X-0.1415 Y1.3837  
G01 X-0.1467 Y1.3765  
G01 X-0.1508 Y1.3685  
G01 X-0.1535 Y1.3601  
G01 X-0.1549 Y1.3513  
G01 X-0.1549 Y1.3475  
G01 X-0.1816 Y1.3475  
G01 X-0.1115 Y1.7451  
G01 X-0.1110 Y1.7474  
G01 X-0.1110 Y1.7477  
G01 X-0.1109 Y1.7480  
G01 X-0.1110 Y1.7503  
G01 X-0.1110 Y2.5497  
G01 X-0.1109 Y2.5520  
G01 X-0.1110 Y2.5523  
G01 X-0.1110 Y2.5526  
G01 X-0.1115 Y2.5549  
G01 X-0.1119 Y2.5572  
G01 X-0.1120 Y2.5574  
G01 X-0.1120 Y2.5577  
G01 X-0.1129 Y2.5599  
G01 X-0.1137 Y2.5620  
G01 X-0.1139 Y2.5623  
G01 X-0.1140 Y2.5626  
G01 X-0.1153 Y2.5645  
G01 X-0.2014 Y2.6998  
G01 X-0.2015 Y2.7001  
G01 X-0.2028 Y2.7020  
G01 X-0.2040 Y2.7039  
G01 X-0.2043 Y2.7041  
G01 X-0.2044 Y2.7044  
G01 X-0.2061 Y2.7060  
G01 X-0.2077 Y2.7077  
G01 X-0.2079 Y2.7079  
G01 X-0.2081 Y2.7081  
G01 X-0.2100 Y2.7094  
G01 X-0.2119 Y2.7107  
G01 X-0.2122 Y2.7108  
G01 X-0.2124 Y2.7110  
G01 X-0.2146 Y2.7119  
G01 X-0.2167 Y2.7128  
G01 X-0.2170 Y2.7129  
G01 X-0.2173 Y2.7130  
G01 X-0.2195 Y2.7134  
G01 X-0.2218 Y2.7139  
G01 X-0.2221 Y2.7139  
G01 X-0.2224 Y2.7140  
G01 X-0.2247 Y2.7140  
G01 X-0.2270 Y2.7141  
G01 X-0.2273 Y2.7140  
G01 X-0.3746 Y2.7140  
G01 X-0.3768 Y2.7141  
G01 X-0.3772 Y2.7140  
G01 X-0.3776 Y2.7140  
G01 X-0.3798 Y2.7136  
G01 X-0.3819 Y2.7132  
G01 X-0.3823 Y2.7131  
G01 X-0.3827 Y2.7130  
G01 X-0.3848 Y2.7121  
G01 X-0.3868 Y2.7114  
G01 X-0.3872 Y2.7111  
G01 X-0.3876 Y2.7110  
G01 X-0.3894 Y2.7098  
G01 X-0.3912 Y2.7086  
G01 X-0.3915 Y2.7083  
G01 X-0.3919 Y2.7081  
G01 X-0.3934 Y2.7065  
G01 X-0.3950 Y2.7050  
G01 X-0.3953 Y2.7047  
G01 X-0.3956 Y2.7044  
G01 X-0.3968 Y2.7026  
G01 X-0.5054 Y2.5506  
G01 X-0.5099 Y2.5515  
G01 X-0.6711 Y2.5515  
G01 X-0.7097 Y2.6287  
G01 X-0.7065 Y2.6320  
G01 X-0.7065 Y2.6680  
G01 X-0.7235 Y2.6850  
G01 X-0.7235 Y2.7150  
G01 X-0.7065 Y2.7320  
G01 X-0.7065 Y2.7680  
G01 X-0.7320 Y2.7935  
G01 X-0.7680 Y2.7935  
G01 X-0.7850 Y2.7765  
G01 X-0.8150 Y2.7765  
G01 X-0.8320 Y2.7935  
G01 X-0.8680 Y2.7935  
G01 X-0.8850 Y2.7765  
G01 X-0.9150 Y2.7765  
G01 X-0.9320 Y2.7935  
G01 X-0.9324 Y2.7935  
G01 X-0.9493 Y2.8443  
G01 X-0.9495 Y2.8452  
G01 X-0.9502 Y2.8468  
G01 X-0.9507 Y2.8484  
G01 X-0.9512 Y2.8492  
G01 X-0.9515 Y2.8501  
G01 X-0.9524 Y2.8514  
G01 X-0.9533 Y2.8529  
G01 X-0.9539 Y2.8536  
G01 X-0.9544 Y2.8544  
G01 X-0.9556 Y2.8556  
G01 X-0.9567 Y2.8568  
G01 X-0.9574 Y2.8574  
G01 X-0.9581 Y2.8581  
G01 X-0.9595 Y2.8590  
G01 X-0.9608 Y2.8600  
G01 X-0.9617 Y2.8605  
G01 X-0.9624 Y2.8610  
G01 X-0.9640 Y2.8616  
G01 X-0.9655 Y2.8624  
G01 X-0.9664 Y2.8626  
G01 X-0.9673 Y2.8630  
G01 X-0.9689 Y2.8633  
G01 X-0.9705 Y2.8637  
G01 X-0.9715 Y2.8638  
G01 X-0.9724 Y2.8640  
G01 X-0.9741 Y2.8640  
G01 X-0.9757 Y2.8641  
G01 X-0.9767 Y2.8640  
G01 X-1.3980 Y2.8640  
G01 X-1.3987 Y2.8641  
G01 X-1.4006 Y2.8640  
G01 X-1.4026 Y2.8640  
G01 X-1.4032 Y2.8639  
G01 X-1.4039 Y2.8638  
G01 X-1.4058 Y2.8634  
G01 X-1.4077 Y2.8630  
G01 X-1.4083 Y2.8627  
G01 X-1.4090 Y2.8626  
G01 X-1.4107 Y2.8617  
G01 X-1.4126 Y2.8610  
G01 X-1.4131 Y2.8606  
G01 X-1.4137 Y2.8603  
G01 X-1.4153 Y2.8592  
G01 X-1.4169 Y2.8581  
G01 X-1.4174 Y2.8576  
G01 X-1.4179 Y2.8572  
G01 X-1.4192 Y2.8558  
G01 X-1.4206 Y2.8544  
G01 X-1.4209 Y2.8539  
G01 X-1.4214 Y2.8534  
G01 X-1.4224 Y2.8517  
G01 X-1.4235 Y2.8501  
G01 X-1.4237 Y2.8495  
G01 X-1.4599 Y2.7892  
G01 X-1.4610 Y2.7876  
G01 X-1.4612 Y2.7870  
G01 X-1.4616 Y2.7864  
G01 X-1.4622 Y2.7845  
G01 X-1.4630 Y2.7827  
G01 X-1.4631 Y2.7821  
G01 X-1.4633 Y2.7815  
G01 X-1.4636 Y2.7795  
G01 X-1.4640 Y2.7776  
G01 X-1.4640 Y2.7770  
G01 X-1.4641 Y2.7763  
G01 X-1.4640 Y2.7744  
G01 X-1.4640 Y2.5521  
G01 X-1.4641 Y2.5516  
G01 X-1.4640 Y2.5495  
G01 X-1.4640 Y2.5474  
G01 X-1.4639 Y2.5469  
G01 X-1.4639 Y2.5463  
G01 X-1.4634 Y2.5443  
G01 X-1.4630 Y2.5423  
G01 X-1.4628 Y2.5418  
G01 X-1.4627 Y2.5413  
G01 X-1.4618 Y2.5394  
G01 X-1.4610 Y2.5374  
G01 X-1.4607 Y2.5370  
G01 X-1.4605 Y2.5365  
G01 X-1.4592 Y2.5348  
G01 X-1.4581 Y2.5331  
G01 X-1.4577 Y2.5327  
G01 X-1.2604 Y2.2614  
G01 X-1.2603 Y2.2612  
G01 X-1.2588 Y2.2593  
G01 X-1.2574 Y2.2573  
G01 X-1.2573 Y2.2572  
G01 X-1.2572 Y2.2570  
G01 X-1.2554 Y2.2554  
G01 X-1.2536 Y2.2538  
G01 X-1.2534 Y2.2537  
G01 X-1.1325 Y2.1448  
G01 X-1.1325 Y2.1365  
G01 X-1.1265 Y2.1305  
G01 X-1.1265 Y2.0793  
G01 X-1.1939 Y1.8770  
G01 X-1.2075 Y1.8635  
G01 X-1.2075 Y1.8365  
G01 X-1.1885 Y1.8175  
G01 X-1.1615 Y1.8175  
G01 X-1.1425 Y1.8365  
G01 X-1.1425 Y1.8635  
G01 X-1.0752 Y2.0657  
G01 X-1.0745 Y2.0673  
G01 X-1.0743 Y2.0682  
G01 X-1.0740 Y2.0691  
G01 X-1.0738 Y2.0708  
G01 X-1.0735 Y2.0724  
G01 X-1.0735 Y2.0733  
G01 X-1.0734 Y2.0743  
G01 X-1.0735 Y2.0759  
G01 X-1.0735 Y2.1305  
G01 X-1.0675 Y2.1365  
G01 X-1.0675 Y2.1635  
G01 X-1.0865 Y2.1825  
G01 X-1.0950 Y2.1825  
G01 X-1.0956 Y2.1831  
G01 X-1.0962 Y2.1835  
G01 X-1.2177 Y2.2928  
G01 X-1.4110 Y2.5586  
G01 X-1.4110 Y2.7677  
G01 X-1.3850 Y2.8110  
G01 X-0.9941 Y2.8110  
G01 X-0.9832 Y2.7783  
G01 X-0.9935 Y2.7680  
G01 X-0.9935 Y2.7320  
G01 X-0.9680 Y2.7065  
G01 X-0.9320 Y2.7065  
G01 X-0.9150 Y2.7235  
G01 X-0.8850 Y2.7235  
G01 X-0.8680 Y2.7065  
G01 X-0.8320 Y2.7065  
G01 X-0.8150 Y2.7235  
G01 X-0.7850 Y2.7235  
G01 X-0.7765 Y2.7150  
G01 X-0.7765 Y2.6850  
G01 X-0.7850 Y2.6765  
G01 X-0.8150 Y2.6765  
G01 X-0.8320 Y2.6935  
G01 X-0.8680 Y2.6935  
G01 X-0.8850 Y2.6765  
G01 X-0.9150 Y2.6765  
G01 X-0.9320 Y2.6935  
G01 X-0.9680 Y2.6935  
G01 X-0.9935 Y2.6680  
G01 X-0.9935 Y2.6320  
G01 X-0.9680 Y2.6065  
G01 X-0.9320 Y2.6065  
G01 X-0.9150 Y2.6235  
G01 X-0.8850 Y2.6235  
G01 X-0.8680 Y2.6065  
G01 X-0.8320 Y2.6065  
G01 X-0.8150 Y2.6235  
G01 X-0.7850 Y2.6235  
G01 X-0.7680 Y2.6065  
G01 X-0.7579 Y2.6065  
G01 X-0.7116 Y2.5140  
G01 X-0.7110 Y2.5124  
G01 X-0.7105 Y2.5117  
G01 X-0.7100 Y2.5108  
G01 X-0.7090 Y2.5095  
G01 X-0.7081 Y2.5081  
G01 X-0.7074 Y2.5074  
G01 X-0.7068 Y2.5067  
G01 X-0.7056 Y2.5056  
G01 X-0.7044 Y2.5044  
G01 X-0.7036 Y2.5039  
G01 X-0.7029 Y2.5033  
G01 X-0.7014 Y2.5024  
G01 X-0.7001 Y2.5015  
G01 X-0.6992 Y2.5012  
G01 X-0.6984 Y2.5007  
G01 X-0.6968 Y2.5002  
G01 X-0.6952 Y2.4995  
G01 X-0.6943 Y2.4993  
G01 X-0.6934 Y2.4990  
G01 X-0.6917 Y2.4988  
G01 X-0.6901 Y2.4985  
G01 X-0.6892 Y2.4985  
G01 X-0.6882 Y2.4984  
G01 X-0.6866 Y2.4985  
G01 X-0.5265 Y2.4985  
G01 X-0.5265 Y2.4195  
G01 X-0.5325 Y2.4135  
G01 X-0.5325 Y2.3865  
G01 X-0.5223 Y2.3763  
G01 X-0.5137 Y2.3332  
G01 X-0.5135 Y2.3316  
G01 X-0.5132 Y2.3307  
G01 X-0.5130 Y2.3297  
G01 X-0.5123 Y2.3282  
G01 X-0.4882 Y2.2557  
G01 X-0.4880 Y2.2548  
G01 X-0.4879 Y2.2545  
G01 X-0.4880 Y2.2537  
G01 X-0.4880 Y2.2515  
G01 X-0.7675 Y2.2515  
G01 X-0.7675 Y2.2635  
G01 X-0.7865 Y2.2825  
G01 X-0.8135 Y2.2825  
G01 X-0.8325 Y2.2635  
G01 X-0.8325 Y2.2365  
G01 X-0.8265 Y2.2305  
G01 X-0.8265 Y2.1610  
G01 X-0.8495 Y2.1380  
G01 X-0.8657 Y2.1380  
G01 X-0.8880 Y2.1157  
G01 X-0.8880 Y2.0843  
G01 X-0.8765 Y2.0728  
G01 X-0.8765 Y1.9272  
G01 X-0.8880 Y1.9157  
G01 X-0.8880 Y1.8843  
G01 X-0.8657 Y1.8620  
G01 X-0.8343 Y1.8620  
G01 X-0.8120 Y1.8843  
G01 X-0.8120 Y1.9157  
G01 X-0.8235 Y1.9272  
G01 X-0.8235 Y2.0728  
G01 X-0.8120 Y2.0843  
G01 X-0.8120 Y2.1005  
G01 X-0.7794 Y2.1331  
G01 X-0.7765 Y2.1374  
G01 X-0.7745 Y2.1423  
G01 X-0.7735 Y2.1474  
G01 X-0.7735 Y2.1985  
G01 X-0.4848 Y2.1985  
G01 X-0.5000 Y2.1228  
G01 X-0.5102 Y2.1075  
G01 X-0.5135 Y2.1075  
G01 X-0.5325 Y2.0885  
G01 X-0.5325 Y2.0615  
G01 X-0.5135 Y2.0425  
G01 X-0.4865 Y2.0425  
G01 X-0.4675 Y2.0615  
G01 X-0.4675 Y2.0760  
G01 X-0.4530 Y2.0978  
G01 X-0.4515 Y2.0999  
G01 X-0.4505 Y2.1024  
G01 X-0.4495 Y2.1047  
G01 X-0.4490 Y2.1073  
G01 X-0.4265 Y2.2200  
G01 X-0.4258 Y2.2205  
G01 X-0.4205 Y2.2258  
G01 X-0.4163 Y2.2320  
G01 X-0.4135 Y2.2389  
G01 X-0.4120 Y2.2463  
G01 X-0.4120 Y2.2537  
G01 X-0.4135 Y2.2611  
G01 X-0.4163 Y2.2680  
G01 X-0.4205 Y2.2742  
G01 X-0.4258 Y2.2795  
G01 X-0.4320 Y2.2837  
G01 X-0.4389 Y2.2865  
G01 X-0.4428 Y2.2873  
G01 X-0.4618 Y2.3443  
G01 X-0.4698 Y2.3842  
G01 X-0.4675 Y2.3865  
G01 X-0.4675 Y2.4135  
G01 X-0.4735 Y2.4195  
G01 X-0.4735 Y2.5040  
G01 X-0.3614 Y2.6610  
G01 X-0.2395 Y2.6610  
G01 X-0.1640 Y2.5423  
G01 X-0.1640 Y1.7523  
G01 X-0.2385 Y1.3303  
G01 X-0.3321 Y0.9322  
G01 X-0.3346 Y0.9322  
G01 X-0.3535 Y0.9134  
G01 X-0.3535 Y0.8866  
G01 X-0.3346 Y0.8678  
G01 X-0.3208 Y0.8678  
G01 X-0.1391 Y0.6860  
G01 X-0.1415 Y0.6837  
G01 X-0.1467 Y0.6765  
G01 X-0.1508 Y0.6685  
G01 X-0.1535 Y0.6601  
G01 X-0.1549 Y0.6513  
G01 X-0.1549 Y0.5424  
G01 X-0.1535 Y0.5336  
G01 X-0.1508 Y0.5252  
G01 X-0.1467 Y0.5172  
G01 X-0.1415 Y0.5100  
G01 X-0.1352 Y0.5038  
G00 Z0.0500  
G00 X-0.7175 Y0.5365  
G01 Z-0.0035 F10    
G01 X-0.7175 Y0.5635  F20    
G01 X-0.7365 Y0.5825  
G01 X-0.7507 Y0.5825  
G01 X-0.8675 Y0.6993  
G01 X-0.8675 Y0.7135  
G01 X-0.8865 Y0.7325  
G01 X-0.9135 Y0.7325  
G01 X-0.9325 Y0.7135  
G01 X-0.9325 Y0.6865  
G01 X-0.9321 Y0.6861  
G01 X-0.9589 Y0.6325  
G01 X-0.9635 Y0.6325  
G01 X-0.9825 Y0.6135  
G01 X-0.9825 Y0.5865  
G01 X-0.9635 Y0.5675  
G01 X-0.9365 Y0.5675  
G01 X-0.9175 Y0.5865  
G01 X-0.9175 Y0.6135  
G01 X-0.9179 Y0.6139  
G01 X-0.8938 Y0.6620  
G01 X-0.7825 Y0.5507  
G01 X-0.7825 Y0.5365  
G01 X-0.7635 Y0.5175  
G01 X-0.7365 Y0.5175  
G01 X-0.7175 Y0.5365  
G00 Z0.0500  
G00 X-0.5218 Y0.8794  
G01 Z-0.0035 F10    
G01 X-0.5212 Y0.8790  F20    
G01 X-0.5190 Y0.8784  
G01 X-0.5168 Y0.8777  
G01 X-0.5161 Y0.8777  
G01 X-0.5155 Y0.8775  
G01 X-0.5132 Y0.8775  
G01 X-0.5109 Y0.8774  
G01 X-0.5102 Y0.8775  
G01 X-0.5018 Y0.8775  
G01 X-0.4921 Y0.8678  
G01 X-0.4654 Y0.8678  
G01 X-0.4465 Y0.8866  
G01 X-0.4465 Y0.9134  
G01 X-0.4654 Y0.9322  
G01 X-0.4921 Y0.9322  
G01 X-0.5018 Y0.9225  
G01 X-0.5088 Y0.9225  
G01 X-0.8032 Y1.0206  
G01 X-0.8038 Y1.0210  
G01 X-0.8060 Y1.0216  
G01 X-0.8082 Y1.0223  
G01 X-0.8089 Y1.0223  
G01 X-0.8095 Y1.0225  
G01 X-0.8118 Y1.0225  
G01 X-0.8141 Y1.0226  
G01 X-0.8148 Y1.0225  
G01 X-0.8765 Y1.0225  
G01 X-0.8865 Y1.0325  
G01 X-0.9135 Y1.0325  
G01 X-0.9180 Y1.0279  
G01 X-0.9517 Y1.0447  
G01 X-0.9535 Y1.0458  
G01 X-0.9543 Y1.0461  
G01 X-0.9551 Y1.0464  
G01 X-0.9571 Y1.0469  
G01 X-1.0175 Y1.0641  
G01 X-1.0175 Y1.0792  
G01 X-1.0187 Y1.0855  
G01 X-1.0212 Y1.0914  
G01 X-1.0248 Y1.0967  
G01 X-1.0293 Y1.1012  
G01 X-1.0346 Y1.1048  
G01 X-1.0405 Y1.1073  
G01 X-1.0468 Y1.1085  
G01 X-1.0532 Y1.1085  
G01 X-1.0595 Y1.1073  
G01 X-1.0654 Y1.1048  
G01 X-1.0707 Y1.1012  
G01 X-1.0752 Y1.0967  
G01 X-1.0788 Y1.0914  
G01 X-1.0813 Y1.0855  
G01 X-1.0825 Y1.0792  
G01 X-1.0825 Y1.0208  
G01 X-1.0813 Y1.0145  
G01 X-1.0788 Y1.0086  
G01 X-1.0752 Y1.0033  
G01 X-1.0707 Y0.9988  
G01 X-1.0654 Y0.9952  
G01 X-1.0595 Y0.9927  
G01 X-1.0532 Y0.9915  
G01 X-1.0468 Y0.9915  
G01 X-1.0405 Y0.9927  
G01 X-1.0346 Y0.9952  
G01 X-1.0293 Y0.9988  
G01 X-1.0248 Y1.0033  
G01 X-1.0212 Y1.0086  
G01 X-1.0187 Y1.0145  
G01 X-1.0182 Y1.0175  
G01 X-0.9707 Y1.0039  
G01 X-0.9291 Y0.9832  
G01 X-0.9135 Y0.9675  
G01 X-0.8865 Y0.9675  
G01 X-0.8765 Y0.9775  
G01 X-0.8162 Y0.9775  
G01 X-0.5218 Y0.8794  
G00 Z0.0500  
G00 X-0.4770 Y1.0356  
G01 Z-0.0035 F10    
G01 X-0.4683 Y1.0370  F20    
G01 X-0.4598 Y1.0398  
G01 X-0.4519 Y1.0438  
G01 X-0.4447 Y1.0490  
G01 X-0.4384 Y1.0553  
G01 X-0.4332 Y1.0625  
G01 X-0.4291 Y1.0704  
G01 X-0.4264 Y1.0789  
G01 X-0.4250 Y1.0877  
G01 X-0.4250 Y1.0966  
G01 X-0.4264 Y1.1054  
G01 X-0.4291 Y1.1138  
G01 X-0.4332 Y1.1217  
G01 X-0.4384 Y1.1289  
G01 X-0.4447 Y1.1352  
G01 X-0.4519 Y1.1404  
G01 X-0.4598 Y1.1445  
G01 X-0.4683 Y1.1472  
G01 X-0.4770 Y1.1486  
G01 X-0.5859 Y1.1486  
G01 X-0.5947 Y1.1472  
G01 X-0.6032 Y1.1445  
G01 X-0.6111 Y1.1404  
G01 X-0.6183 Y1.1352  
G01 X-0.6246 Y1.1289  
G01 X-0.6298 Y1.1217  
G01 X-0.6339 Y1.1138  
G01 X-0.6366 Y1.1054  
G01 X-0.6380 Y1.0966  
G01 X-0.6380 Y1.0877  
G01 X-0.6366 Y1.0789  
G01 X-0.6339 Y1.0704  
G01 X-0.6298 Y1.0625  
G01 X-0.6246 Y1.0553  
G01 X-0.6183 Y1.0490  
G01 X-0.6111 Y1.0438  
G01 X-0.6032 Y1.0398  
G01 X-0.5947 Y1.0370  
G01 X-0.5859 Y1.0356  
G01 X-0.4770 Y1.0356  
G00 Z0.0500  
G00 X-0.5826 Y1.5049  
G01 Z-0.0035 F10    
G01 X-0.3850 Y1.6531  F20    
G01 X-0.3837 Y1.6539  
G01 X-0.3829 Y1.6547  
G01 X-0.3820 Y1.6554  
G01 X-0.3810 Y1.6565  
G01 X-0.3799 Y1.6575  
G01 X-0.3793 Y1.6584  
G01 X-0.3785 Y1.6593  
G01 X-0.3778 Y1.6605  
G01 X-0.3769 Y1.6617  
G01 X-0.3764 Y1.6628  
G01 X-0.3759 Y1.6637  
G01 X-0.3754 Y1.6651  
G01 X-0.3748 Y1.6665  
G01 X-0.3745 Y1.6676  
G01 X-0.3741 Y1.6687  
G01 X-0.3739 Y1.6701  
G01 X-0.2997 Y1.9919  
G01 X-0.2995 Y1.9923  
G01 X-0.2991 Y1.9944  
G01 X-0.2986 Y1.9966  
G01 X-0.2986 Y1.9970  
G01 X-0.2985 Y1.9974  
G01 X-0.2985 Y1.9996  
G01 X-0.2984 Y2.0018  
G01 X-0.2985 Y2.0022  
G01 X-0.2985 Y2.1480  
G01 X-0.2984 Y2.1487  
G01 X-0.2985 Y2.1506  
G01 X-0.2985 Y2.1526  
G01 X-0.2986 Y2.1532  
G01 X-0.2987 Y2.1539  
G01 X-0.2991 Y2.1558  
G01 X-0.2995 Y2.1577  
G01 X-0.2998 Y2.1583  
G01 X-0.3174 Y2.2289  
G01 X-0.3120 Y2.2343  
G01 X-0.3120 Y2.2657  
G01 X-0.3123 Y2.2661  
G01 X-0.3023 Y2.2861  
G01 X-0.3022 Y2.2863  
G01 X-0.3012 Y2.2884  
G01 X-0.3001 Y2.2905  
G01 X-0.3001 Y2.2908  
G01 X-0.2999 Y2.2910  
G01 X-0.2994 Y2.2933  
G01 X-0.2988 Y2.2955  
G01 X-0.2987 Y2.2958  
G01 X-0.2789 Y2.3751  
G01 X-0.2675 Y2.3865  
G01 X-0.2675 Y2.4135  
G01 X-0.2735 Y2.4195  
G01 X-0.2735 Y2.5658  
G01 X-0.2710 Y2.5676  
G01 X-0.2661 Y2.5726  
G01 X-0.2619 Y2.5783  
G01 X-0.2588 Y2.5845  
G01 X-0.2566 Y2.5912  
G01 X-0.2555 Y2.5981  
G01 X-0.2555 Y2.6051  
G01 X-0.2566 Y2.6120  
G01 X-0.2588 Y2.6187  
G01 X-0.2619 Y2.6249  
G01 X-0.2661 Y2.6306  
G01 X-0.2710 Y2.6355  
G01 X-0.2767 Y2.6396  
G01 X-0.2829 Y2.6428  
G01 X-0.2896 Y2.6450  
G01 X-0.2965 Y2.6461  
G01 X-0.3035 Y2.6461  
G01 X-0.3104 Y2.6450  
G01 X-0.3171 Y2.6428  
G01 X-0.3233 Y2.6396  
G01 X-0.3290 Y2.6355  
G01 X-0.3339 Y2.6306  
G01 X-0.3381 Y2.6249  
G01 X-0.3412 Y2.6187  
G01 X-0.3434 Y2.6120  
G01 X-0.3445 Y2.6051  
G01 X-0.3445 Y2.5981  
G01 X-0.3434 Y2.5912  
G01 X-0.3412 Y2.5845  
G01 X-0.3381 Y2.5783  
G01 X-0.3339 Y2.5726  
G01 X-0.3290 Y2.5676  
G01 X-0.3265 Y2.5658  
G01 X-0.3265 Y2.4195  
G01 X-0.3325 Y2.4135  
G01 X-0.3325 Y2.3865  
G01 X-0.3310 Y2.3851  
G01 X-0.3500 Y2.3092  
G01 X-0.3606 Y2.2880  
G01 X-0.3657 Y2.2880  
G01 X-0.3880 Y2.2657  
G01 X-0.3880 Y2.2343  
G01 X-0.3685 Y2.2148  
G01 X-0.3515 Y2.1467  
G01 X-0.3515 Y2.0030  
G01 X-0.4236 Y1.6904  
G01 X-0.6088 Y1.5515  
G01 X-0.7276 Y1.5515  
G01 X-0.7327 Y1.5505  
G01 X-0.7376 Y1.5485  
G01 X-0.7419 Y1.5456  
G01 X-0.9110 Y1.3765  
G01 X-1.0175 Y1.3765  
G01 X-1.0175 Y1.3792  
G01 X-1.0187 Y1.3855  
G01 X-1.0212 Y1.3914  
G01 X-1.0248 Y1.3967  
G01 X-1.0293 Y1.4012  
G01 X-1.0346 Y1.4048  
G01 X-1.0405 Y1.4073  
G01 X-1.0468 Y1.4085  
G01 X-1.0532 Y1.4085  
G01 X-1.0595 Y1.4073  
G01 X-1.0654 Y1.4048  
G01 X-1.0707 Y1.4012  
G01 X-1.0752 Y1.3967  
G01 X-1.0788 Y1.3914  
G01 X-1.0813 Y1.3855  
G01 X-1.0825 Y1.3792  
G01 X-1.0825 Y1.3208  
G01 X-1.0813 Y1.3145  
G01 X-1.0788 Y1.3086  
G01 X-1.0752 Y1.3033  
G01 X-1.0707 Y1.2988  
G01 X-1.0654 Y1.2952  
G01 X-1.0595 Y1.2927  
G01 X-1.0532 Y1.2915  
G01 X-1.0468 Y1.2915  
G01 X-1.0405 Y1.2927  
G01 X-1.0346 Y1.2952  
G01 X-1.0293 Y1.2988  
G01 X-1.0248 Y1.3033  
G01 X-1.0212 Y1.3086  
G01 X-1.0187 Y1.3145  
G01 X-1.0175 Y1.3208  
G01 X-1.0175 Y1.3235  
G01 X-0.8974 Y1.3235  
G01 X-0.8923 Y1.3245  
G01 X-0.8874 Y1.3265  
G01 X-0.8831 Y1.3294  
G01 X-0.7140 Y1.4985  
G01 X-0.6019 Y1.4985  
G01 X-0.6012 Y1.4984  
G01 X-0.5993 Y1.4985  
G01 X-0.5974 Y1.4985  
G01 X-0.5967 Y1.4986  
G01 X-0.5960 Y1.4987  
G01 X-0.5941 Y1.4991  
G01 X-0.5923 Y1.4995  
G01 X-0.5916 Y1.4998  
G01 X-0.5909 Y1.5000  
G01 X-0.5892 Y1.5008  
G01 X-0.5874 Y1.5015  
G01 X-0.5868 Y1.5019  
G01 X-0.5862 Y1.5022  
G01 X-0.5847 Y1.5034  
G01 X-0.5831 Y1.5044  
G01 X-0.5826 Y1.5049  
G00 Z0.0500  
G00 X-0.5925 Y1.6115  
G01 Z-0.0035 F10    
G01 X-0.5925 Y1.6385  F20    
G01 X-0.5941 Y1.6400  
G01 X-0.5414 Y1.7630  
G01 X-0.5389 Y1.7635  
G01 X-0.5320 Y1.7663  
G01 X-0.5258 Y1.7705  
G01 X-0.5205 Y1.7758  
G01 X-0.5163 Y1.7820  
G01 X-0.5135 Y1.7889  
G01 X-0.5120 Y1.7963  
G01 X-0.5120 Y1.8037  
G01 X-0.5135 Y1.8111  
G01 X-0.5147 Y1.8140  
G01 X-0.4688 Y1.8875  
G01 X-0.4675 Y1.8893  
G01 X-0.4672 Y1.8900  
G01 X-0.4669 Y1.8906  
G01 X-0.4662 Y1.8928  
G01 X-0.4382 Y1.9675  
G01 X-0.4365 Y1.9675  
G01 X-0.4175 Y1.9865  
G01 X-0.4175 Y2.0135  
G01 X-0.4365 Y2.0325  
G01 X-0.4635 Y2.0325  
G01 X-0.4825 Y2.0135  
G01 X-0.4825 Y1.9865  
G01 X-0.4800 Y1.9840  
G01 X-0.5078 Y1.9100  
G01 X-0.5528 Y1.8380  
G01 X-0.5537 Y1.8380  
G01 X-0.5611 Y1.8365  
G01 X-0.5680 Y1.8337  
G01 X-0.5742 Y1.8295  
G01 X-0.5795 Y1.8242  
G01 X-0.5837 Y1.8180  
G01 X-0.5865 Y1.8111  
G01 X-0.5880 Y1.8037  
G01 X-0.5880 Y1.7963  
G01 X-0.5865 Y1.7889  
G01 X-0.5837 Y1.7820  
G01 X-0.5828 Y1.7806  
G01 X-0.6356 Y1.6575  
G01 X-0.6385 Y1.6575  
G01 X-0.6575 Y1.6385  
G01 X-0.6575 Y1.6115  
G01 X-0.6385 Y1.5925  
G01 X-0.6115 Y1.5925  
G01 X-0.5925 Y1.6115  
G00 Z0.0500  
G00 X-0.6120 Y1.7843  
G01 Z-0.0035 F10    
G01 X-0.6120 Y1.8157  F20    
G01 X-0.6343 Y1.8380  
G01 X-0.6657 Y1.8380  
G01 X-0.6880 Y1.8157  
G01 X-0.6880 Y1.7878  
G01 X-0.9235 Y1.4850  
G01 X-1.1330 Y1.4850  
G01 X-1.1466 Y1.5325  
G01 X-1.1425 Y1.5365  
G01 X-1.1425 Y1.5635  
G01 X-1.1615 Y1.5825  
G01 X-1.1885 Y1.5825  
G01 X-1.2075 Y1.5635  
G01 X-1.2075 Y1.5365  
G01 X-1.1894 Y1.5184  
G01 X-1.1725 Y1.4593  
G01 X-1.1725 Y1.3995  
G01 X-1.1752 Y1.3967  
G01 X-1.1788 Y1.3914  
G01 X-1.1813 Y1.3855  
G01 X-1.1825 Y1.3792  
G01 X-1.1825 Y1.3208  
G01 X-1.1813 Y1.3145  
G01 X-1.1788 Y1.3086  
G01 X-1.1752 Y1.3033  
G01 X-1.1707 Y1.2988  
G01 X-1.1654 Y1.2952  
G01 X-1.1595 Y1.2927  
G01 X-1.1532 Y1.2915  
G01 X-1.1468 Y1.2915  
G01 X-1.1405 Y1.2927  
G01 X-1.1346 Y1.2952  
G01 X-1.1293 Y1.2988  
G01 X-1.1248 Y1.3033  
G01 X-1.1212 Y1.3086  
G01 X-1.1187 Y1.3145  
G01 X-1.1175 Y1.3208  
G01 X-1.1175 Y1.3792  
G01 X-1.1187 Y1.3855  
G01 X-1.1212 Y1.3914  
G01 X-1.1248 Y1.3967  
G01 X-1.1275 Y1.3995  
G01 X-1.1275 Y1.4400  
G01 X-0.9140 Y1.4400  
G01 X-0.9126 Y1.4398  
G01 X-0.9111 Y1.4400  
G01 X-0.9095 Y1.4400  
G01 X-0.9082 Y1.4404  
G01 X-0.9068 Y1.4405  
G01 X-0.9053 Y1.4411  
G01 X-0.9038 Y1.4415  
G01 X-0.9026 Y1.4422  
G01 X-0.9013 Y1.4428  
G01 X-0.9000 Y1.4437  
G01 X-0.8987 Y1.4445  
G01 X-0.8977 Y1.4455  
G01 X-0.8966 Y1.4463  
G01 X-0.8956 Y1.4476  
G01 X-0.8945 Y1.4487  
G01 X-0.8938 Y1.4499  
G01 X-0.6511 Y1.7620  
G01 X-0.6343 Y1.7620  
G01 X-0.6120 Y1.7843  
G00 Z0.0500  
G00 X-0.8135 Y1.7889  
G01 Z-0.0035 F10    
G01 X-0.8120 Y1.7963  F20    
G01 X-0.8120 Y1.8037  
G01 X-0.8135 Y1.8111  
G01 X-0.8163 Y1.8180  
G01 X-0.8205 Y1.8242  
G01 X-0.8258 Y1.8295  
G01 X-0.8320 Y1.8337  
G01 X-0.8389 Y1.8365  
G01 X-0.8463 Y1.8380  
G01 X-0.8537 Y1.8380  
G01 X-0.8611 Y1.8365  
G01 X-0.8680 Y1.8337  
G01 X-0.8742 Y1.8295  
G01 X-0.8795 Y1.8242  
G01 X-0.8837 Y1.8180  
G01 X-0.8865 Y1.8111  
G01 X-0.8880 Y1.8037  
G01 X-0.8880 Y1.7963  
G01 X-0.8865 Y1.7889  
G01 X-0.8857 Y1.7870  
G01 X-0.8921 Y1.7774  
G01 X-0.8938 Y1.7749  
G01 X-0.8954 Y1.7725  
G01 X-0.8963 Y1.7697  
G01 X-0.8973 Y1.7669  
G01 X-0.9211 Y1.6952  
G01 X-0.9362 Y1.6575  
G01 X-0.9385 Y1.6575  
G01 X-0.9575 Y1.6385  
G01 X-0.9575 Y1.6339  
G01 X-1.0611 Y1.5821  
G01 X-1.0615 Y1.5825  
G01 X-1.0885 Y1.5825  
G01 X-1.1075 Y1.5635  
G01 X-1.1075 Y1.5365  
G01 X-1.0885 Y1.5175  
G01 X-1.0615 Y1.5175  
G01 X-1.0425 Y1.5365  
G01 X-1.0425 Y1.5411  
G01 X-0.9389 Y1.5929  
G01 X-0.9385 Y1.5925  
G01 X-0.9115 Y1.5925  
G01 X-0.8925 Y1.6115  
G01 X-0.8925 Y1.6385  
G01 X-0.8946 Y1.6405  
G01 X-0.8800 Y1.6770  
G01 X-0.8796 Y1.6776  
G01 X-0.8789 Y1.6798  
G01 X-0.8780 Y1.6819  
G01 X-0.8779 Y1.6826  
G01 X-0.8546 Y1.7525  
G01 X-0.8483 Y1.7620  
G01 X-0.8463 Y1.7620  
G01 X-0.8389 Y1.7635  
G01 X-0.8320 Y1.7663  
G01 X-0.8258 Y1.7705  
G01 X-0.8205 Y1.7758  
G01 X-0.8163 Y1.7820  
G01 X-0.8135 Y1.7889  
G00 Z0.0500  
G00 X-1.0363 Y1.7416  
G01 Z-0.0035 F10    
G01 X-1.0464 Y1.8326  F20    
G01 X-1.0425 Y1.8365  
G01 X-1.0425 Y1.8510  
G01 X-1.0030 Y1.9102  
G01 X-1.0017 Y1.9122  
G01 X-1.0016 Y1.9123  
G01 X-1.0015 Y1.9125  
G01 X-1.0006 Y1.9147  
G01 X-0.9364 Y2.0645  
G01 X-0.9320 Y2.0663  
G01 X-0.9258 Y2.0705  
G01 X-0.9205 Y2.0758  
G01 X-0.9163 Y2.0820  
G01 X-0.9135 Y2.0889  
G01 X-0.9120 Y2.0963  
G01 X-0.9120 Y2.1037  
G01 X-0.9135 Y2.1111  
G01 X-0.9163 Y2.1180  
G01 X-0.9205 Y2.1242  
G01 X-0.9258 Y2.1295  
G01 X-0.9320 Y2.1337  
G01 X-0.9389 Y2.1365  
G01 X-0.9463 Y2.1380  
G01 X-0.9505 Y2.1380  
G01 X-0.9610 Y2.1485  
G01 X-0.9610 Y2.2401  
G01 X-0.9620 Y2.2452  
G01 X-0.9640 Y2.2501  
G01 X-0.9669 Y2.2544  
G01 X-0.9675 Y2.2550  
G01 X-0.9675 Y2.2635  
G01 X-0.9735 Y2.2695  
G01 X-0.9735 Y2.3631  
G01 X-0.9694 Y2.3661  
G01 X-0.9645 Y2.3710  
G01 X-0.9604 Y2.3767  
G01 X-0.9572 Y2.3829  
G01 X-0.9550 Y2.3896  
G01 X-0.9539 Y2.3965  
G01 X-0.9539 Y2.4035  
G01 X-0.9550 Y2.4104  
G01 X-0.9572 Y2.4171  
G01 X-0.9604 Y2.4233  
G01 X-0.9645 Y2.4290  
G01 X-0.9694 Y2.4339  
G01 X-0.9751 Y2.4381  
G01 X-0.9813 Y2.4412  
G01 X-0.9880 Y2.4434  
G01 X-0.9949 Y2.4445  
G01 X-1.0019 Y2.4445  
G01 X-1.0088 Y2.4434  
G01 X-1.0155 Y2.4412  
G01 X-1.0217 Y2.4381  
G01 X-1.0274 Y2.4339  
G01 X-1.0324 Y2.4290  
G01 X-1.0365 Y2.4233  
G01 X-1.0397 Y2.4171  
G01 X-1.0418 Y2.4104  
G01 X-1.0429 Y2.4035  
G01 X-1.0429 Y2.3965  
G01 X-1.0418 Y2.3896  
G01 X-1.0397 Y2.3829  
G01 X-1.0365 Y2.3767  
G01 X-1.0324 Y2.3710  
G01 X-1.0274 Y2.3661  
G01 X-1.0265 Y2.3654  
G01 X-1.0265 Y2.2695  
G01 X-1.0325 Y2.2635  
G01 X-1.0325 Y2.2365  
G01 X-1.0140 Y2.2180  
G01 X-1.0140 Y2.1349  
G01 X-1.0130 Y2.1298  
G01 X-1.0110 Y2.1249  
G01 X-1.0081 Y2.1206  
G01 X-0.9880 Y2.1005  
G01 X-0.9880 Y2.0963  
G01 X-0.9865 Y2.0889  
G01 X-0.9851 Y2.0854  
G01 X-1.0484 Y1.9377  
G01 X-1.0852 Y1.8825  
G01 X-1.0885 Y1.8825  
G01 X-1.1075 Y1.8635  
G01 X-1.1075 Y1.8365  
G01 X-1.0993 Y1.8283  
G01 X-1.0921 Y1.7640  
G01 X-1.1366 Y1.7640  
G01 X-1.1382 Y1.7641  
G01 X-1.1392 Y1.7640  
G01 X-1.1401 Y1.7640  
G01 X-1.1417 Y1.7637  
G01 X-1.1434 Y1.7635  
G01 X-1.1443 Y1.7632  
G01 X-1.1452 Y1.7630  
G01 X-1.1468 Y1.7623  
G01 X-1.4818 Y1.6507  
G01 X-1.4827 Y1.6505  
G01 X-1.4843 Y1.6498  
G01 X-1.4859 Y1.6493  
G01 X-1.4867 Y1.6488  
G01 X-1.4876 Y1.6485  
G01 X-1.4889 Y1.6476  
G01 X-1.4904 Y1.6467  
G01 X-1.4911 Y1.6461  
G01 X-1.4919 Y1.6456  
G01 X-1.4931 Y1.6444  
G01 X-1.4943 Y1.6433  
G01 X-1.4949 Y1.6426  
G01 X-1.4956 Y1.6419  
G01 X-1.4965 Y1.6405  
G01 X-1.4975 Y1.6392  
G01 X-1.4980 Y1.6383  
G01 X-1.4985 Y1.6376  
G01 X-1.4991 Y1.6360  
G01 X-1.4999 Y1.6345  
G01 X-1.5001 Y1.6336  
G01 X-1.5005 Y1.6327  
G01 X-1.5008 Y1.6311  
G01 X-1.5012 Y1.6295  
G01 X-1.5013 Y1.6285  
G01 X-1.5015 Y1.6276  
G01 X-1.5015 Y1.6259  
G01 X-1.5016 Y1.6243  
G01 X-1.5015 Y1.6233  
G01 X-1.5015 Y1.3011  
G01 X-1.5016 Y1.2996  
G01 X-1.5015 Y1.2985  
G01 X-1.5015 Y1.2974  
G01 X-1.5012 Y1.2959  
G01 X-1.5010 Y1.2944  
G01 X-1.5007 Y1.2933  
G01 X-1.5005 Y1.2923  
G01 X-1.4999 Y1.2909  
G01 X-1.4994 Y1.2894  
G01 X-1.4989 Y1.2885  
G01 X-1.4985 Y1.2874  
G01 X-1.4976 Y1.2862  
G01 X-1.3825 Y1.0789  
G01 X-1.3825 Y1.0208  
G01 X-1.3813 Y1.0145  
G01 X-1.3788 Y1.0086  
G01 X-1.3752 Y1.0033  
G01 X-1.3707 Y0.9988  
G01 X-1.3654 Y0.9952  
G01 X-1.3595 Y0.9927  
G01 X-1.3532 Y0.9915  
G01 X-1.3468 Y0.9915  
G01 X-1.3405 Y0.9927  
G01 X-1.3346 Y0.9952  
G01 X-1.3293 Y0.9988  
G01 X-1.3248 Y1.0033  
G01 X-1.3212 Y1.0086  
G01 X-1.3187 Y1.0145  
G01 X-1.3175 Y1.0208  
G01 X-1.3175 Y1.0792  
G01 X-1.3187 Y1.0855  
G01 X-1.3212 Y1.0914  
G01 X-1.3248 Y1.0967  
G01 X-1.3293 Y1.1012  
G01 X-1.3346 Y1.1048  
G01 X-1.3367 Y1.1057  
G01 X-1.4485 Y1.3069  
G01 X-1.4485 Y1.6059  
G01 X-1.1332 Y1.7110  
G01 X-1.0636 Y1.7110  
G01 X-1.0622 Y1.7109  
G01 X-1.0610 Y1.7110  
G01 X-1.0599 Y1.7110  
G01 X-1.0584 Y1.7113  
G01 X-1.0570 Y1.7115  
G01 X-1.0559 Y1.7118  
G01 X-1.0548 Y1.7120  
G01 X-1.0534 Y1.7126  
G01 X-1.0520 Y1.7130  
G01 X-1.0510 Y1.7136  
G01 X-1.0499 Y1.7140  
G01 X-1.0487 Y1.7148  
G01 X-1.0474 Y1.7155  
G01 X-1.0466 Y1.7163  
G01 X-1.0456 Y1.7169  
G01 X-1.0446 Y1.7180  
G01 X-1.0434 Y1.7189  
G01 X-1.0427 Y1.7198  
G01 X-1.0419 Y1.7206  
G01 X-1.0411 Y1.7218  
G01 X-1.0402 Y1.7230  
G01 X-1.0397 Y1.7240  
G01 X-1.0390 Y1.7249  
G01 X-1.0385 Y1.7263  
G01 X-1.0378 Y1.7276  
G01 X-1.0375 Y1.7287  
G01 X-1.0370 Y1.7298  
G01 X-1.0367 Y1.7312  
G01 X-1.0363 Y1.7326  
G01 X-1.0362 Y1.7338  
G01 X-1.0360 Y1.7349  
G01 X-1.0360 Y1.7364  
G01 X-1.0359 Y1.7378  
G01 X-1.0360 Y1.7390  
G01 X-1.0360 Y1.7401  
G01 X-1.0363 Y1.7416  
G00 Z0.0500  
G00 X-1.2425 Y1.8365  
G01 Z-0.0035 F10    
G01 X-1.2425 Y1.8635  F20    
G01 X-1.2615 Y1.8825  
G01 X-1.2661 Y1.8825  
G01 X-1.3175 Y1.9853  
G01 X-1.3175 Y2.0292  
G01 X-1.3187 Y2.0355  
G01 X-1.3212 Y2.0414  
G01 X-1.3248 Y2.0467  
G01 X-1.3293 Y2.0512  
G01 X-1.3346 Y2.0548  
G01 X-1.3405 Y2.0573  
G01 X-1.3468 Y2.0585  
G01 X-1.3532 Y2.0585  
G01 X-1.3595 Y2.0573  
G01 X-1.3654 Y2.0548  
G01 X-1.3707 Y2.0512  
G01 X-1.3752 Y2.0467  
G01 X-1.3788 Y2.0414  
G01 X-1.3813 Y2.0355  
G01 X-1.3825 Y2.0292  
G01 X-1.3825 Y1.9708  
G01 X-1.3813 Y1.9645  
G01 X-1.3788 Y1.9586  
G01 X-1.3752 Y1.9533  
G01 X-1.3707 Y1.9488  
G01 X-1.3654 Y1.9452  
G01 X-1.3595 Y1.9427  
G01 X-1.3532 Y1.9415  
G01 X-1.3468 Y1.9415  
G01 X-1.3460 Y1.9417  
G01 X-1.3114 Y1.8725  
G01 X-1.3515 Y1.8725  
G01 X-1.3615 Y1.8825  
G01 X-1.3885 Y1.8825  
G01 X-1.4075 Y1.8635  
G01 X-1.4075 Y1.8365  
G01 X-1.3885 Y1.8175  
G01 X-1.3615 Y1.8175  
G01 X-1.3515 Y1.8275  
G01 X-1.2985 Y1.8275  
G01 X-1.2885 Y1.8175  
G01 X-1.2615 Y1.8175  
G01 X-1.2425 Y1.8365  
G00 Z0.0500  
G00 X-1.2405 Y1.9427  
G01 Z-0.0035 F10    
G01 X-1.2346 Y1.9452  F20    
G01 X-1.2293 Y1.9488  
G01 X-1.2248 Y1.9533  
G01 X-1.2212 Y1.9586  
G01 X-1.2187 Y1.9645  
G01 X-1.2175 Y1.9708  
G01 X-1.2175 Y2.0292  
G01 X-1.2187 Y2.0355  
G01 X-1.2212 Y2.0414  
G01 X-1.2248 Y2.0467  
G01 X-1.2293 Y2.0512  
G01 X-1.2346 Y2.0548  
G01 X-1.2405 Y2.0573  
G01 X-1.2468 Y2.0585  
G01 X-1.2492 Y2.0585  
G01 X-1.2786 Y2.1321  
G01 X-1.2790 Y2.1337  
G01 X-1.2797 Y2.1349  
G01 X-1.2802 Y2.1361  
G01 X-1.2812 Y2.1374  
G01 X-1.2820 Y2.1388  
G01 X-1.2830 Y2.1398  
G01 X-1.2838 Y2.1409  
G01 X-1.2850 Y2.1419  
G01 X-1.3112 Y2.1680  
G01 X-1.3163 Y2.1710  
G01 X-1.3220 Y2.1725  
G01 X-1.3765 Y2.1725  
G01 X-1.3865 Y2.1825  
G01 X-1.4135 Y2.1825  
G01 X-1.4325 Y2.1635  
G01 X-1.4325 Y2.1365  
G01 X-1.4135 Y2.1175  
G01 X-1.3865 Y2.1175  
G01 X-1.3765 Y2.1275  
G01 X-1.3343 Y2.1275  
G01 X-1.3192 Y2.1124  
G01 X-1.2825 Y2.0207  
G01 X-1.2825 Y1.9708  
G01 X-1.2813 Y1.9645  
G01 X-1.2788 Y1.9586  
G01 X-1.2752 Y1.9533  
G01 X-1.2707 Y1.9488  
G01 X-1.2654 Y1.9452  
G01 X-1.2595 Y1.9427  
G01 X-1.2532 Y1.9415  
G01 X-1.2468 Y1.9415  
G01 X-1.2405 Y1.9427  
G00 Z0.0500  
G00 X-1.4248 Y1.9533  
G01 Z-0.0035 F10    
G01 X-1.4212 Y1.9586  F20    
G01 X-1.4187 Y1.9645  
G01 X-1.4175 Y1.9708  
G01 X-1.4175 Y2.0292  
G01 X-1.4187 Y2.0355  
G01 X-1.4212 Y2.0414  
G01 X-1.4248 Y2.0467  
G01 X-1.4293 Y2.0512  
G01 X-1.4346 Y2.0548  
G01 X-1.4405 Y2.0573  
G01 X-1.4468 Y2.0585  
G01 X-1.4532 Y2.0585  
G01 X-1.4595 Y2.0573  
G01 X-1.4654 Y2.0548  
G01 X-1.4707 Y2.0512  
G01 X-1.4752 Y2.0467  
G01 X-1.4788 Y2.0414  
G01 X-1.4813 Y2.0355  
G01 X-1.4825 Y2.0292  
G01 X-1.4825 Y1.9708  
G01 X-1.4813 Y1.9645  
G01 X-1.4788 Y1.9586  
G01 X-1.4752 Y1.9533  
G01 X-1.4707 Y1.9488  
G01 X-1.4654 Y1.9452  
G01 X-1.4595 Y1.9427  
G01 X-1.4532 Y1.9415  
G01 X-1.4468 Y1.9415  
G01 X-1.4405 Y1.9427  
G01 X-1.4346 Y1.9452  
G01 X-1.4293 Y1.9488  
G01 X-1.4248 Y1.9533  
G00 Z0.0500  
G00 X-1.3075 Y1.5635  
G01 Z-0.0035 F10    
G01 X-1.3075 Y1.5365  F20    
G01 X-1.2943 Y1.5234  
G01 X-1.2780 Y1.3926  
G01 X-1.2788 Y1.3914  
G01 X-1.2813 Y1.3855  
G01 X-1.2825 Y1.3792  
G01 X-1.2825 Y1.3208  
G01 X-1.2813 Y1.3145  
G01 X-1.2788 Y1.3086  
G01 X-1.2752 Y1.3033  
G01 X-1.2707 Y1.2988  
G01 X-1.2654 Y1.2952  
G01 X-1.2595 Y1.2927  
G01 X-1.2532 Y1.2915  
G01 X-1.2468 Y1.2915  
G01 X-1.2405 Y1.2927  
G01 X-1.2346 Y1.2952  
G01 X-1.2293 Y1.2988  
G01 X-1.2248 Y1.3033  
G01 X-1.2212 Y1.3086  
G01 X-1.2187 Y1.3145  
G01 X-1.2175 Y1.3208  
G01 X-1.2175 Y1.3792  
G01 X-1.2187 Y1.3855  
G01 X-1.2212 Y1.3914  
G01 X-1.2248 Y1.3967  
G01 X-1.2293 Y1.4012  
G01 X-1.2341 Y1.4045  
G01 X-1.2497 Y1.5293  
G01 X-1.2425 Y1.5365  
G01 X-1.2425 Y1.5635  
G01 X-1.2615 Y1.5825  
G01 X-1.2885 Y1.5825  
G01 X-1.3075 Y1.5635  
G00 Z0.0500  
G00 X-1.3320 Y2.6065  
G01 Z-0.0035 F10    
G01 X-1.3065 Y2.6320  F20    
G01 X-1.3065 Y2.6680  
G01 X-1.3320 Y2.6935  
G01 X-1.3680 Y2.6935  
G01 X-1.3935 Y2.6680  
G01 X-1.3935 Y2.6320  
G01 X-1.3680 Y2.6065  
G01 X-1.3320 Y2.6065  
G00 Z0.0500  
G00 X-1.2935 Y2.6320  
G01 Z-0.0035 F10    
G01 X-1.2680 Y2.6065  F20    
G01 X-1.2320 Y2.6065  
G01 X-1.2065 Y2.6320  
G01 X-1.2065 Y2.6680  
G01 X-1.2320 Y2.6935  
G01 X-1.2680 Y2.6935  
G01 X-1.2935 Y2.6680  
G01 X-1.2935 Y2.6320  
G00 Z0.0500  
G00 X-1.1935 Y2.6320  
G01 Z-0.0035 F10    
G01 X-1.1680 Y2.6065  F20    
G01 X-1.1320 Y2.6065  
G01 X-1.1065 Y2.6320  
G01 X-1.1065 Y2.6680  
G01 X-1.1320 Y2.6935  
G01 X-1.1680 Y2.6935  
G01 X-1.1935 Y2.6680  
G01 X-1.1935 Y2.6320  
G00 Z0.0500  
G00 X-1.1935 Y2.7320  
G01 Z-0.0035 F10    
G01 X-1.1680 Y2.7065  F20    
G01 X-1.1320 Y2.7065  
G01 X-1.1065 Y2.7320  
G01 X-1.1065 Y2.7680  
G01 X-1.1320 Y2.7935  
G01 X-1.1680 Y2.7935  
G01 X-1.1935 Y2.7680  
G01 X-1.1935 Y2.7320  
G00 Z0.0500  
G00 X-1.2065 Y2.7320  
G01 Z-0.0035 F10    
G01 X-1.2065 Y2.7680  F20    
G01 X-1.2320 Y2.7935  
G01 X-1.2680 Y2.7935  
G01 X-1.2935 Y2.7680  
G01 X-1.2935 Y2.7320  
G01 X-1.2680 Y2.7065  
G01 X-1.2320 Y2.7065  
G01 X-1.2065 Y2.7320  
G00 Z0.0500  
G00 X-1.3065 Y2.7320  
G01 Z-0.0035 F10    
G01 X-1.3065 Y2.7680  F20    
G01 X-1.3320 Y2.7935  
G01 X-1.3680 Y2.7935  
G01 X-1.3935 Y2.7680  
G01 X-1.3935 Y2.7320  
G01 X-1.3680 Y2.7065  
G01 X-1.3320 Y2.7065  
G01 X-1.3065 Y2.7320  
G00 Z0.0500  
G00 X-1.0935 Y2.7320  
G01 Z-0.0035 F10    
G01 X-1.0725 Y2.7110  F20    
G01 X-1.0725 Y2.6890  
G01 X-1.0935 Y2.6680  
G01 X-1.0935 Y2.6320  
G01 X-1.0725 Y2.6110  
G01 X-1.0725 Y2.5891  
G01 X-1.0727 Y2.5878  
G01 X-1.0725 Y2.5862  
G01 X-1.0725 Y2.5845  
G01 X-1.0722 Y2.5833  
G01 X-1.0720 Y2.5819  
G01 X-1.0714 Y2.5804  
G01 X-1.0710 Y2.5788  
G01 X-1.0703 Y2.5777  
G01 X-1.0698 Y2.5764  
G01 X-1.0688 Y2.5751  
G01 X-1.0680 Y2.5737  
G01 X-1.0671 Y2.5727  
G01 X-1.0663 Y2.5717  
G01 X-1.0650 Y2.5707  
G01 X-1.0638 Y2.5695  
G01 X-1.0627 Y2.5688  
G01 X-0.8461 Y2.3978  
G01 X-0.8461 Y2.3965  
G01 X-0.8450 Y2.3896  
G01 X-0.8428 Y2.3829  
G01 X-0.8396 Y2.3767  
G01 X-0.8355 Y2.3710  
G01 X-0.8306 Y2.3661  
G01 X-0.8249 Y2.3619  
G01 X-0.8187 Y2.3588  
G01 X-0.8120 Y2.3566  
G01 X-0.8051 Y2.3555  
G01 X-0.7981 Y2.3555  
G01 X-0.7912 Y2.3566  
G01 X-0.7845 Y2.3588  
G01 X-0.7783 Y2.3619  
G01 X-0.7726 Y2.3661  
G01 X-0.7676 Y2.3710  
G01 X-0.7635 Y2.3767  
G01 X-0.7603 Y2.3829  
G01 X-0.7582 Y2.3896  
G01 X-0.7571 Y2.3965  
G01 X-0.7571 Y2.4035  
G01 X-0.7582 Y2.4104  
G01 X-0.7603 Y2.4171  
G01 X-0.7635 Y2.4233  
G01 X-0.7676 Y2.4290  
G01 X-0.7726 Y2.4339  
G01 X-0.7783 Y2.4381  
G01 X-0.7845 Y2.4412  
G01 X-0.7912 Y2.4434  
G01 X-0.7981 Y2.4445  
G01 X-0.8051 Y2.4445  
G01 X-0.8120 Y2.4434  
G01 X-0.8187 Y2.4412  
G01 X-0.8246 Y2.4382  
G01 X-1.0275 Y2.5984  
G01 X-1.0275 Y2.6110  
G01 X-1.0065 Y2.6320  
G01 X-1.0065 Y2.6680  
G01 X-1.0275 Y2.6890  
G01 X-1.0275 Y2.7110  
G01 X-1.0065 Y2.7320  
G01 X-1.0065 Y2.7680  
G01 X-1.0320 Y2.7935  
G01 X-1.0680 Y2.7935  
G01 X-1.0935 Y2.7680  
G01 X-1.0935 Y2.7320  
G00 Z0.0500  
G00 X-0.6935 Y2.7320  
G01 Z-0.0035 F10    
G01 X-0.6725 Y2.7110  F20    
G01 X-0.6725 Y2.6890  
G01 X-0.6935 Y2.6680  
G01 X-0.6935 Y2.6320  
G01 X-0.6680 Y2.6065  
G01 X-0.6320 Y2.6065  
G01 X-0.6065 Y2.6320  
G01 X-0.6065 Y2.6680  
G01 X-0.6275 Y2.6890  
G01 X-0.6275 Y2.7110  
G01 X-0.6065 Y2.7320  
G01 X-0.6065 Y2.7492  
G01 X-0.5907 Y2.7650  
G01 X-0.3295 Y2.7650  
G01 X-0.3290 Y2.7645  
G01 X-0.3233 Y2.7604  
G01 X-0.3171 Y2.7572  
G01 X-0.3104 Y2.7550  
G01 X-0.3035 Y2.7539  
G01 X-0.2965 Y2.7539  
G01 X-0.2896 Y2.7550  
G01 X-0.2829 Y2.7572  
G01 X-0.2767 Y2.7604  
G01 X-0.2710 Y2.7645  
G01 X-0.2661 Y2.7694  
G01 X-0.2619 Y2.7751  
G01 X-0.2588 Y2.7813  
G01 X-0.2566 Y2.7880  
G01 X-0.2555 Y2.7949  
G01 X-0.2555 Y2.8019  
G01 X-0.2566 Y2.8088  
G01 X-0.2588 Y2.8155  
G01 X-0.2619 Y2.8217  
G01 X-0.2661 Y2.8274  
G01 X-0.2710 Y2.8324  
G01 X-0.2767 Y2.8365  
G01 X-0.2829 Y2.8397  
G01 X-0.2896 Y2.8418  
G01 X-0.2965 Y2.8429  
G01 X-0.3035 Y2.8429  
G01 X-0.3104 Y2.8418  
G01 X-0.3171 Y2.8397  
G01 X-0.3233 Y2.8365  
G01 X-0.3290 Y2.8324  
G01 X-0.3339 Y2.8274  
G01 X-0.3381 Y2.8217  
G01 X-0.3412 Y2.8155  
G01 X-0.3430 Y2.8100  
G01 X-0.6030 Y2.8100  
G01 X-0.6087 Y2.8085  
G01 X-0.6138 Y2.8055  
G01 X-0.6289 Y2.7904  
G01 X-0.6320 Y2.7935  
G01 X-0.6680 Y2.7935  
G01 X-0.6935 Y2.7680  
G01 X-0.6935 Y2.7320  
G00 Z0.0500  
G00 X-0.5825 Y2.0135  
G01 Z-0.0035 F10    
G01 X-0.5825 Y1.9865  F20    
G01 X-0.5635 Y1.9675  
G01 X-0.5365 Y1.9675  
G01 X-0.5175 Y1.9865  
G01 X-0.5175 Y2.0135  
G01 X-0.5365 Y2.0325  
G01 X-0.5635 Y2.0325  
G01 X-0.5825 Y2.0135  
G00 Z0.0500  
G00 X-0.2700 Y0.1209  
G01 Z-0.0035 F10    
G01 X-0.2689 Y0.1223  F20    
G01 X-0.2678 Y0.1236  
G01 X-0.2675 Y0.1241  
G01 X-0.2671 Y0.1247  
G01 X-0.2663 Y0.1262  
G01 X-0.2655 Y0.1277  
G01 X-0.2653 Y0.1283  
G01 X-0.2161 Y0.2266  
G01 X-0.2151 Y0.2285  
G01 X-0.2151 Y0.2287  
G01 X-0.2150 Y0.2289  
G01 X-0.2144 Y0.2310  
G01 X-0.2138 Y0.2331  
G01 X-0.2138 Y0.2333  
G01 X-0.2137 Y0.2334  
G01 X-0.2136 Y0.2356  
G01 X-0.2134 Y0.2378  
G01 X-0.2134 Y0.2380  
G01 X-0.2134 Y0.2382  
G01 X-0.2137 Y0.2403  
G01 X-0.2261 Y0.3519  
G01 X-0.2261 Y0.3536  
G01 X-0.2263 Y0.3543  
G01 X-0.2264 Y0.3550  
G01 X-0.2269 Y0.3566  
G01 X-0.2273 Y0.3582  
G01 X-0.2276 Y0.3588  
G01 X-0.2278 Y0.3595  
G01 X-0.2286 Y0.3609  
G01 X-0.2293 Y0.3624  
G01 X-0.2298 Y0.3630  
G01 X-0.2301 Y0.3636  
G01 X-0.2312 Y0.3649  
G01 X-0.2322 Y0.3662  
G01 X-0.2327 Y0.3667  
G01 X-0.2332 Y0.3673  
G01 X-0.2344 Y0.3683  
G01 X-0.4537 Y0.5665  
G01 X-0.4540 Y0.5668  
G01 X-0.4555 Y0.5681  
G01 X-0.4569 Y0.5694  
G01 X-0.4573 Y0.5696  
G01 X-0.4576 Y0.5699  
G01 X-0.4593 Y0.5708  
G01 X-0.4610 Y0.5718  
G01 X-0.4614 Y0.5720  
G01 X-0.4617 Y0.5721  
G01 X-0.4636 Y0.5727  
G01 X-0.4654 Y0.5734  
G01 X-0.4658 Y0.5735  
G01 X-0.5601 Y0.6035  
G01 X-0.5601 Y0.6376  
G01 X-0.4245 Y0.7298  
G01 X-0.4229 Y0.7308  
G01 X-0.4225 Y0.7312  
G01 X-0.4220 Y0.7315  
G01 X-0.4208 Y0.7328  
G01 X-0.4194 Y0.7340  
G01 X-0.4191 Y0.7345  
G01 X-0.4187 Y0.7349  
G01 X-0.4177 Y0.7364  
G01 X-0.4167 Y0.7378  
G01 X-0.4164 Y0.7383  
G01 X-0.4161 Y0.7388  
G01 X-0.4155 Y0.7405  
G01 X-0.4147 Y0.7421  
G01 X-0.4146 Y0.7427  
G01 X-0.4144 Y0.7432  
G01 X-0.4140 Y0.7450  
G01 X-0.3521 Y1.0051  
G01 X-0.3519 Y1.0055  
G01 X-0.3515 Y1.0074  
G01 X-0.3511 Y1.0092  
G01 X-0.3511 Y1.0097  
G01 X-0.3510 Y1.0101  
G01 X-0.3510 Y1.0121  
G01 X-0.3509 Y1.0140  
G01 X-0.3510 Y1.0144  
G01 X-0.3510 Y1.1605  
G01 X-0.3509 Y1.1610  
G01 X-0.3510 Y1.1629  
G01 X-0.3510 Y1.1649  
G01 X-0.3511 Y1.1653  
G01 X-0.3511 Y1.1657  
G01 X-0.3515 Y1.1676  
G01 X-0.3519 Y1.1695  
G01 X-0.3521 Y1.1699  
G01 X-0.3522 Y1.1703  
G01 X-0.3530 Y1.1721  
G01 X-0.3537 Y1.1739  
G01 X-0.3540 Y1.1742  
G01 X-0.4780 Y1.4471  
G01 X-0.4787 Y1.4489  
G01 X-0.4790 Y1.4492  
G01 X-0.4791 Y1.4496  
G01 X-0.4803 Y1.4512  
G01 X-0.4814 Y1.4528  
G01 X-0.4816 Y1.4531  
G01 X-0.4819 Y1.4534  
G01 X-0.4833 Y1.4548  
G01 X-0.4847 Y1.4561  
G01 X-0.4850 Y1.4564  
G01 X-0.4853 Y1.4567  
G01 X-0.4870 Y1.4577  
G01 X-0.4886 Y1.4588  
G01 X-0.4890 Y1.4589  
G01 X-0.4894 Y1.4591  
G01 X-0.4912 Y1.4598  
G01 X-0.4930 Y1.4606  
G01 X-0.4934 Y1.4607  
G01 X-0.4938 Y1.4608  
G01 X-0.4957 Y1.4611  
G01 X-0.4976 Y1.4615  
G01 X-0.4980 Y1.4615  
G01 X-0.4985 Y1.4616  
G01 X-0.5004 Y1.4615  
G01 X-0.6899 Y1.4615  
G01 X-0.6945 Y1.4606  
G01 X-0.6989 Y1.4588  
G01 X-0.7028 Y1.4561  
G01 X-0.7406 Y1.4183  
G01 X-0.7410 Y1.4180  
G01 X-0.7423 Y1.4166  
G01 X-0.7436 Y1.4153  
G01 X-0.7439 Y1.4149  
G01 X-0.8852 Y1.2618  
G01 X-1.2757 Y1.2737  
G01 X-1.3160 Y1.3240  
G01 X-1.3160 Y1.3793  
G01 X-1.3173 Y1.3859  
G01 X-1.3199 Y1.3921  
G01 X-1.3236 Y1.3977  
G01 X-1.3283 Y1.4024  
G01 X-1.3327 Y1.4054  
G01 X-1.3482 Y1.5288  
G01 X-1.3410 Y1.5359  
G01 X-1.3410 Y1.5641  
G01 X-1.3609 Y1.5840  
G01 X-1.3891 Y1.5840  
G01 X-1.4090 Y1.5641  
G01 X-1.4090 Y1.5359  
G01 X-1.3958 Y1.5227  
G01 X-1.3796 Y1.3930  
G01 X-1.3801 Y1.3921  
G01 X-1.3827 Y1.3859  
G01 X-1.3840 Y1.3793  
G01 X-1.3840 Y1.3207  
G01 X-1.3827 Y1.3141  
G01 X-1.3801 Y1.3079  
G01 X-1.3764 Y1.3023  
G01 X-1.3717 Y1.2976  
G01 X-1.3661 Y1.2939  
G01 X-1.3599 Y1.2913  
G01 X-1.3533 Y1.2900  
G01 X-1.3502 Y1.2900  
G01 X-1.3071 Y1.2361  
G01 X-1.3066 Y1.2353  
G01 X-1.3056 Y1.2343  
G01 X-1.3048 Y1.2332  
G01 X-1.3040 Y1.2325  
G01 X-1.3034 Y1.2318  
G01 X-1.3022 Y1.2310  
G01 X-1.3011 Y1.2301  
G01 X-1.3003 Y1.2296  
G01 X-1.2995 Y1.2291  
G01 X-1.2982 Y1.2285  
G01 X-1.2970 Y1.2278  
G01 X-1.2961 Y1.2275  
G01 X-1.2952 Y1.2271  
G01 X-1.2938 Y1.2268  
G01 X-1.2925 Y1.2264  
G01 X-1.2915 Y1.2263  
G01 X-1.2906 Y1.2261  
G01 X-1.2892 Y1.2260  
G01 X-1.2878 Y1.2259  
G01 X-1.2868 Y1.2260  
G01 X-0.8772 Y1.2136  
G01 X-0.8764 Y1.2134  
G01 X-0.8749 Y1.2135  
G01 X-0.8734 Y1.2134  
G01 X-0.8725 Y1.2136  
G01 X-0.8717 Y1.2136  
G01 X-0.8702 Y1.2140  
G01 X-0.8687 Y1.2142  
G01 X-0.8679 Y1.2145  
G01 X-0.8671 Y1.2147  
G01 X-0.8657 Y1.2154  
G01 X-0.8643 Y1.2159  
G01 X-0.8636 Y1.2163  
G01 X-0.8628 Y1.2167  
G01 X-0.8616 Y1.2176  
G01 X-0.8603 Y1.2184  
G01 X-0.8597 Y1.2190  
G01 X-0.8590 Y1.2195  
G01 X-0.8579 Y1.2206  
G01 X-0.8568 Y1.2216  
G01 X-0.8563 Y1.2223  
G01 X-0.7077 Y1.3834  
G01 X-0.6776 Y1.4135  
G01 X-0.5155 Y1.4135  
G01 X-0.3990 Y1.1573  
G01 X-0.3990 Y1.0153  
G01 X-0.4587 Y0.7646  
G01 X-0.5749 Y0.6856  
G01 X-0.5803 Y0.6911  
G01 X-0.5877 Y0.6965  
G01 X-0.5958 Y0.7006  
G01 X-0.6045 Y0.7034  
G01 X-0.6135 Y0.7049  
G01 X-0.6209 Y0.7049  
G01 X-0.7040 Y0.7880  
G01 X-0.7190 Y0.8329  
G01 X-0.7160 Y0.8359  
G01 X-0.7160 Y0.8641  
G01 X-0.7359 Y0.8840  
G01 X-0.7641 Y0.8840  
G01 X-0.7840 Y0.8641  
G01 X-0.7840 Y0.8359  
G01 X-0.7641 Y0.8160  
G01 X-0.7640 Y0.8160  
G01 X-0.7482 Y0.7688  
G01 X-0.7481 Y0.7680  
G01 X-0.7475 Y0.7666  
G01 X-0.7470 Y0.7652  
G01 X-0.7466 Y0.7644  
G01 X-0.7463 Y0.7636  
G01 X-0.7454 Y0.7624  
G01 X-0.7447 Y0.7611  
G01 X-0.7441 Y0.7604  
G01 X-0.7436 Y0.7597  
G01 X-0.7426 Y0.7586  
G01 X-0.7416 Y0.7575  
G01 X-0.7409 Y0.7570  
G01 X-0.6650 Y0.6810  
G01 X-0.6677 Y0.6772  
G01 X-0.6719 Y0.6691  
G01 X-0.6747 Y0.6604  
G01 X-0.6761 Y0.6514  
G01 X-0.6761 Y0.5423  
G01 X-0.6747 Y0.5333  
G01 X-0.6719 Y0.5246  
G01 X-0.6677 Y0.5165  
G01 X-0.6624 Y0.5091  
G01 X-0.6559 Y0.5026  
G01 X-0.6485 Y0.4972  
G01 X-0.6404 Y0.4931  
G01 X-0.6317 Y0.4903  
G01 X-0.6227 Y0.4889  
G01 X-0.6135 Y0.4889  
G01 X-0.6045 Y0.4903  
G01 X-0.5958 Y0.4931  
G01 X-0.5877 Y0.4972  
G01 X-0.5803 Y0.5026  
G01 X-0.5739 Y0.5091  
G01 X-0.5685 Y0.5165  
G01 X-0.5644 Y0.5246  
G01 X-0.5615 Y0.5333  
G01 X-0.5601 Y0.5423  
G01 X-0.5601 Y0.5532  
G01 X-0.4835 Y0.5287  
G01 X-0.2728 Y0.3383  
G01 X-0.2621 Y0.2419  
G01 X-0.2968 Y0.1727  
G01 X-0.3101 Y0.1860  
G01 X-0.3399 Y0.1860  
G01 X-0.3519 Y0.1740  
G01 X-0.3981 Y0.1740  
G01 X-0.4101 Y0.1860  
G01 X-0.4399 Y0.1860  
G01 X-0.4519 Y0.1740  
G01 X-0.4981 Y0.1740  
G01 X-0.5101 Y0.1860  
G01 X-0.5399 Y0.1860  
G01 X-0.5519 Y0.1740  
G01 X-0.5981 Y0.1740  
G01 X-0.6101 Y0.1860  
G01 X-0.6399 Y0.1860  
G01 X-0.6519 Y0.1740  
G01 X-0.6981 Y0.1740  
G01 X-0.7101 Y0.1860  
G01 X-0.7399 Y0.1860  
G01 X-0.7519 Y0.1740  
G01 X-0.7981 Y0.1740  
G01 X-0.8101 Y0.1860  
G01 X-0.8399 Y0.1860  
G01 X-0.8519 Y0.1740  
G01 X-0.8981 Y0.1740  
G01 X-0.9101 Y0.1860  
G01 X-0.9399 Y0.1860  
G01 X-0.9519 Y0.1740  
G01 X-0.9981 Y0.1740  
G01 X-1.0101 Y0.1860  
G01 X-1.0399 Y0.1860  
G01 X-1.0519 Y0.1740  
G01 X-1.0981 Y0.1740  
G01 X-1.1101 Y0.1860  
G01 X-1.1399 Y0.1860  
G01 X-1.1519 Y0.1740  
G01 X-1.1981 Y0.1740  
G01 X-1.2101 Y0.1860  
G01 X-1.2399 Y0.1860  
G01 X-1.2610 Y0.1649  
G01 X-1.2610 Y0.1351  
G01 X-1.2399 Y0.1140  
G01 X-1.2101 Y0.1140  
G01 X-1.1981 Y0.1260  
G01 X-1.1519 Y0.1260  
G01 X-1.1399 Y0.1140  
G01 X-1.1101 Y0.1140  
G01 X-1.0981 Y0.1260  
G01 X-1.0519 Y0.1260  
G01 X-1.0399 Y0.1140  
G01 X-1.0101 Y0.1140  
G01 X-0.9981 Y0.1260  
G01 X-0.9519 Y0.1260  
G01 X-0.9399 Y0.1140  
G01 X-0.9101 Y0.1140  
G01 X-0.8981 Y0.1260  
G01 X-0.8519 Y0.1260  
G01 X-0.8399 Y0.1140  
G01 X-0.8101 Y0.1140  
G01 X-0.7981 Y0.1260  
G01 X-0.7519 Y0.1260  
G01 X-0.7399 Y0.1140  
G01 X-0.7101 Y0.1140  
G01 X-0.6981 Y0.1260  
G01 X-0.6519 Y0.1260  
G01 X-0.6399 Y0.1140  
G01 X-0.6101 Y0.1140  
G01 X-0.5981 Y0.1260  
G01 X-0.5519 Y0.1260  
G01 X-0.5399 Y0.1140  
G01 X-0.5101 Y0.1140  
G01 X-0.4981 Y0.1260  
G01 X-0.4519 Y0.1260  
G01 X-0.4399 Y0.1140  
G01 X-0.4101 Y0.1140  
G01 X-0.3981 Y0.1260  
G01 X-0.3519 Y0.1260  
G01 X-0.3399 Y0.1140  
G01 X-0.3101 Y0.1140  
G01 X-0.3058 Y0.1183  
G01 X-0.2967 Y0.1153  
G01 X-0.2961 Y0.1150  
G01 X-0.2945 Y0.1145  
G01 X-0.2928 Y0.1140  
G01 X-0.2922 Y0.1139  
G01 X-0.2916 Y0.1137  
G01 X-0.2899 Y0.1136  
G01 X-0.2882 Y0.1134  
G01 X-0.2875 Y0.1134  
G01 X-0.2868 Y0.1134  
G01 X-0.2851 Y0.1136  
G01 X-0.2834 Y0.1137  
G01 X-0.2828 Y0.1139  
G01 X-0.2822 Y0.1140  
G01 X-0.2805 Y0.1145  
G01 X-0.2789 Y0.1150  
G01 X-0.2783 Y0.1153  
G01 X-0.2777 Y0.1155  
G01 X-0.2762 Y0.1163  
G01 X-0.2747 Y0.1171  
G01 X-0.2741 Y0.1175  
G01 X-0.2736 Y0.1178  
G01 X-0.2723 Y0.1189  
G01 X-0.2709 Y0.1200  
G01 X-0.2705 Y0.1205  
G01 X-0.2700 Y0.1209  
G00 Z0.0500  
G00 X-0.2890 Y0.2351  
G01 Z-0.0035 F10    
G01 X-0.2890 Y0.2649  F20    
G01 X-0.3101 Y0.2860  
G01 X-0.3399 Y0.2860  
G01 X-0.3519 Y0.2740  
G01 X-0.3981 Y0.2740  
G01 X-0.4101 Y0.2860  
G01 X-0.4399 Y0.2860  
G01 X-0.4519 Y0.2740  
G01 X-0.4981 Y0.2740  
G01 X-0.5101 Y0.2860  
G01 X-0.5399 Y0.2860  
G01 X-0.5519 Y0.2740  
G01 X-0.5981 Y0.2740  
G01 X-0.6101 Y0.2860  
G01 X-0.6399 Y0.2860  
G01 X-0.6519 Y0.2740  
G01 X-0.6981 Y0.2740  
G01 X-0.7101 Y0.2860  
G01 X-0.7310 Y0.2860  
G01 X-1.1160 Y0.6031  
G01 X-1.1160 Y0.6141  
G01 X-1.1260 Y0.6241  
G01 X-1.1260 Y0.9999  
G01 X-1.1236 Y1.0023  
G01 X-1.1199 Y1.0079  
G01 X-1.1173 Y1.0141  
G01 X-1.1160 Y1.0207  
G01 X-1.1160 Y1.0793  
G01 X-1.1173 Y1.0859  
G01 X-1.1199 Y1.0921  
G01 X-1.1215 Y1.0946  
G01 X-1.0901 Y1.1260  
G01 X-0.7976 Y1.1260  
G01 X-0.7930 Y1.1269  
G01 X-0.7886 Y1.1287  
G01 X-0.7847 Y1.1314  
G01 X-0.7814 Y1.1347  
G01 X-0.6758 Y1.2403  
G01 X-0.6747 Y1.2333  
G01 X-0.6719 Y1.2246  
G01 X-0.6677 Y1.2165  
G01 X-0.6624 Y1.2091  
G01 X-0.6559 Y1.2026  
G01 X-0.6485 Y1.1972  
G01 X-0.6404 Y1.1931  
G01 X-0.6317 Y1.1903  
G01 X-0.6227 Y1.1889  
G01 X-0.6135 Y1.1889  
G01 X-0.6045 Y1.1903  
G01 X-0.5958 Y1.1931  
G01 X-0.5877 Y1.1972  
G01 X-0.5803 Y1.2026  
G01 X-0.5739 Y1.2091  
G01 X-0.5685 Y1.2165  
G01 X-0.5644 Y1.2246  
G01 X-0.5615 Y1.2333  
G01 X-0.5601 Y1.2423  
G01 X-0.5601 Y1.3514  
G01 X-0.5615 Y1.3604  
G01 X-0.5644 Y1.3691  
G01 X-0.5685 Y1.3772  
G01 X-0.5739 Y1.3846  
G01 X-0.5803 Y1.3911  
G01 X-0.5877 Y1.3965  
G01 X-0.5958 Y1.4006  
G01 X-0.6045 Y1.4034  
G01 X-0.6135 Y1.4049  
G01 X-0.6227 Y1.4049  
G01 X-0.6317 Y1.4034  
G01 X-0.6404 Y1.4006  
G01 X-0.6485 Y1.3965  
G01 X-0.6559 Y1.3911  
G01 X-0.6624 Y1.3846  
G01 X-0.6677 Y1.3772  
G01 X-0.6719 Y1.3691  
G01 X-0.6747 Y1.3604  
G01 X-0.6761 Y1.3514  
G01 X-0.6761 Y1.3078  
G01 X-0.8099 Y1.1740  
G01 X-1.1024 Y1.1740  
G01 X-1.1070 Y1.1731  
G01 X-1.1114 Y1.1713  
G01 X-1.1153 Y1.1686  
G01 X-1.1653 Y1.1186  
G01 X-1.1686 Y1.1153  
G01 X-1.1713 Y1.1114  
G01 X-1.1731 Y1.1070  
G01 X-1.1740 Y1.1024  
G01 X-1.1740 Y1.1001  
G01 X-1.1764 Y1.0977  
G01 X-1.1801 Y1.0921  
G01 X-1.1827 Y1.0859  
G01 X-1.1840 Y1.0793  
G01 X-1.1840 Y1.0740  
G01 X-1.2160 Y1.0740  
G01 X-1.2160 Y1.0793  
G01 X-1.2173 Y1.0859  
G01 X-1.2199 Y1.0921  
G01 X-1.2236 Y1.0977  
G01 X-1.2283 Y1.1024  
G01 X-1.2339 Y1.1061  
G01 X-1.2401 Y1.1087  
G01 X-1.2467 Y1.1100  
G01 X-1.2533 Y1.1100  
G01 X-1.2599 Y1.1087  
G01 X-1.2661 Y1.1061  
G01 X-1.2717 Y1.1024  
G01 X-1.2764 Y1.0977  
G01 X-1.2801 Y1.0921  
G01 X-1.2827 Y1.0859  
G01 X-1.2840 Y1.0793  
G01 X-1.2840 Y1.0207  
G01 X-1.2827 Y1.0141  
G01 X-1.2801 Y1.0079  
G01 X-1.2764 Y1.0023  
G01 X-1.2717 Y0.9976  
G01 X-1.2661 Y0.9939  
G01 X-1.2599 Y0.9913  
G01 X-1.2533 Y0.9900  
G01 X-1.2467 Y0.9900  
G01 X-1.2401 Y0.9913  
G01 X-1.2339 Y0.9939  
G01 X-1.2283 Y0.9976  
G01 X-1.2236 Y1.0023  
G01 X-1.2199 Y1.0079  
G01 X-1.2173 Y1.0141  
G01 X-1.2160 Y1.0207  
G01 X-1.2160 Y1.0260  
G01 X-1.1840 Y1.0260  
G01 X-1.1840 Y1.0207  
G01 X-1.1827 Y1.0141  
G01 X-1.1801 Y1.0079  
G01 X-1.1764 Y1.0023  
G01 X-1.1740 Y0.9999  
G01 X-1.1740 Y0.6241  
G01 X-1.1840 Y0.6141  
G01 X-1.1840 Y0.5859  
G01 X-1.1641 Y0.5660  
G01 X-1.1465 Y0.5660  
G01 X-0.7919 Y0.2740  
G01 X-0.7981 Y0.2740  
G01 X-0.8101 Y0.2860  
G01 X-0.8399 Y0.2860  
G01 X-0.8519 Y0.2740  
G01 X-0.8981 Y0.2740  
G01 X-0.9101 Y0.2860  
G01 X-0.9399 Y0.2860  
G01 X-0.9519 Y0.2740  
G01 X-0.9981 Y0.2740  
G01 X-1.0101 Y0.2860  
G01 X-1.0399 Y0.2860  
G01 X-1.0519 Y0.2740  
G01 X-1.0981 Y0.2740  
G01 X-1.1101 Y0.2860  
G01 X-1.1399 Y0.2860  
G01 X-1.1519 Y0.2740  
G01 X-1.1981 Y0.2740  
G01 X-1.2101 Y0.2860  
G01 X-1.2399 Y0.2860  
G01 X-1.2610 Y0.2649  
G01 X-1.2610 Y0.2351  
G01 X-1.2399 Y0.2140  
G01 X-1.2101 Y0.2140  
G01 X-1.1981 Y0.2260  
G01 X-1.1519 Y0.2260  
G01 X-1.1399 Y0.2140  
G01 X-1.1101 Y0.2140  
G01 X-1.0981 Y0.2260  
G01 X-1.0519 Y0.2260  
G01 X-1.0399 Y0.2140  
G01 X-1.0101 Y0.2140  
G01 X-0.9981 Y0.2260  
G01 X-0.9519 Y0.2260  
G01 X-0.9399 Y0.2140  
G01 X-0.9101 Y0.2140  
G01 X-0.8981 Y0.2260  
G01 X-0.8519 Y0.2260  
G01 X-0.8399 Y0.2140  
G01 X-0.8101 Y0.2140  
G01 X-0.7981 Y0.2260  
G01 X-0.7519 Y0.2260  
G01 X-0.7399 Y0.2140  
G01 X-0.7101 Y0.2140  
G01 X-0.6981 Y0.2260  
G01 X-0.6519 Y0.2260  
G01 X-0.6399 Y0.2140  
G01 X-0.6101 Y0.2140  
G01 X-0.5981 Y0.2260  
G01 X-0.5519 Y0.2260  
G01 X-0.5399 Y0.2140  
G01 X-0.5101 Y0.2140  
G01 X-0.4981 Y0.2260  
G01 X-0.4519 Y0.2260  
G01 X-0.4399 Y0.2140  
G01 X-0.4101 Y0.2140  
G01 X-0.3981 Y0.2260  
G01 X-0.3519 Y0.2260  
G01 X-0.3399 Y0.2140  
G01 X-0.3101 Y0.2140  
G01 X-0.2890 Y0.2351  
G00 Z0.0500  
G00 X-0.4373 Y0.3543  
G01 Z-0.0035 F10    
G01 X-0.4319 Y0.3617  F20    
G01 X-0.4277 Y0.3699  
G01 X-0.4249 Y0.3785  
G01 X-0.4235 Y0.3876  
G01 X-0.4235 Y0.3967  
G01 X-0.4249 Y0.4057  
G01 X-0.4277 Y0.4144  
G01 X-0.4319 Y0.4225  
G01 X-0.4373 Y0.4299  
G01 X-0.4437 Y0.4364  
G01 X-0.4511 Y0.4417  
G01 X-0.4592 Y0.4459  
G01 X-0.4679 Y0.4487  
G01 X-0.4769 Y0.4501  
G01 X-0.5861 Y0.4501  
G01 X-0.5951 Y0.4487  
G01 X-0.6038 Y0.4459  
G01 X-0.6119 Y0.4417  
G01 X-0.6193 Y0.4364  
G01 X-0.6257 Y0.4299  
G01 X-0.6311 Y0.4225  
G01 X-0.6352 Y0.4144  
G01 X-0.6381 Y0.4057  
G01 X-0.6395 Y0.3967  
G01 X-0.6395 Y0.3876  
G01 X-0.6381 Y0.3785  
G01 X-0.6352 Y0.3699  
G01 X-0.6311 Y0.3617  
G01 X-0.6257 Y0.3543  
G01 X-0.6193 Y0.3479  
G01 X-0.6119 Y0.3425  
G01 X-0.6038 Y0.3384  
G01 X-0.5951 Y0.3356  
G01 X-0.5861 Y0.3341  
G01 X-0.4769 Y0.3341  
G01 X-0.4679 Y0.3356  
G01 X-0.4592 Y0.3384  
G01 X-0.4511 Y0.3425  
G01 X-0.4437 Y0.3479  
G01 X-0.4373 Y0.3543  
G00 Z0.0500  
G00 X-0.1362 Y0.5026  
G01 Z-0.0035 F10    
G01 X-0.1288 Y0.4972  F20    
G01 X-0.1207 Y0.4931  
G01 X-0.1120 Y0.4903  
G01 X-0.1030 Y0.4889  
G01 X-0.0939 Y0.4889  
G01 X-0.0848 Y0.4903  
G01 X-0.0762 Y0.4931  
G01 X-0.0680 Y0.4972  
G01 X-0.0606 Y0.5026  
G01 X-0.0542 Y0.5091  
G01 X-0.0488 Y0.5165  
G01 X-0.0447 Y0.5246  
G01 X-0.0419 Y0.5333  
G01 X-0.0404 Y0.5423  
G01 X-0.0404 Y0.6514  
G01 X-0.0419 Y0.6604  
G01 X-0.0447 Y0.6691  
G01 X-0.0488 Y0.6772  
G01 X-0.0542 Y0.6846  
G01 X-0.0606 Y0.6911  
G01 X-0.0680 Y0.6965  
G01 X-0.0762 Y0.7006  
G01 X-0.0848 Y0.7034  
G01 X-0.0919 Y0.7045  
G01 X-0.2844 Y0.8971  
G01 X-0.1894 Y1.3010  
G01 X-0.1564 Y1.3010  
G01 X-0.1564 Y1.2423  
G01 X-0.1550 Y1.2333  
G01 X-0.1522 Y1.2246  
G01 X-0.1480 Y1.2165  
G01 X-0.1427 Y1.2091  
G01 X-0.1362 Y1.2026  
G01 X-0.1288 Y1.1972  
G01 X-0.1207 Y1.1931  
G01 X-0.1120 Y1.1903  
G01 X-0.1030 Y1.1889  
G01 X-0.0939 Y1.1889  
G01 X-0.0848 Y1.1903  
G01 X-0.0762 Y1.1931  
G01 X-0.0680 Y1.1972  
G01 X-0.0606 Y1.2026  
G01 X-0.0542 Y1.2091  
G01 X-0.0488 Y1.2165  
G01 X-0.0447 Y1.2246  
G01 X-0.0419 Y1.2333  
G01 X-0.0404 Y1.2423  
G01 X-0.0404 Y1.3514  
G01 X-0.0419 Y1.3604  
G01 X-0.0447 Y1.3691  
G01 X-0.0488 Y1.3772  
G01 X-0.0542 Y1.3846  
G01 X-0.0606 Y1.3911  
G01 X-0.0680 Y1.3965  
G01 X-0.0762 Y1.4006  
G01 X-0.0848 Y1.4034  
G01 X-0.0939 Y1.4049  
G01 X-0.1030 Y1.4049  
G01 X-0.1120 Y1.4034  
G01 X-0.1207 Y1.4006  
G01 X-0.1288 Y1.3965  
G01 X-0.1362 Y1.3911  
G01 X-0.1427 Y1.3846  
G01 X-0.1480 Y1.3772  
G01 X-0.1522 Y1.3691  
G01 X-0.1550 Y1.3604  
G01 X-0.1564 Y1.3514  
G01 X-0.1564 Y1.3490  
G01 X-0.1798 Y1.3490  
G01 X-0.1100 Y1.7448  
G01 X-0.1095 Y1.7472  
G01 X-0.1095 Y1.7475  
G01 X-0.1094 Y1.7478  
G01 X-0.1095 Y1.7503  
G01 X-0.1095 Y2.5497  
G01 X-0.1094 Y2.5521  
G01 X-0.1095 Y2.5524  
G01 X-0.1095 Y2.5528  
G01 X-0.1100 Y2.5552  
G01 X-0.1104 Y2.5576  
G01 X-0.1105 Y2.5579  
G01 X-0.1106 Y2.5582  
G01 X-0.1115 Y2.5604  
G01 X-0.1124 Y2.5627  
G01 X-0.1126 Y2.5630  
G01 X-0.1127 Y2.5633  
G01 X-0.1140 Y2.5653  
G01 X-0.2001 Y2.7005  
G01 X-0.2002 Y2.7008  
G01 X-0.2015 Y2.7028  
G01 X-0.2029 Y2.7049  
G01 X-0.2031 Y2.7051  
G01 X-0.2033 Y2.7053  
G01 X-0.2050 Y2.7071  
G01 X-0.2067 Y2.7088  
G01 X-0.2069 Y2.7090  
G01 X-0.2072 Y2.7092  
G01 X-0.2092 Y2.7106  
G01 X-0.2112 Y2.7120  
G01 X-0.2115 Y2.7121  
G01 X-0.2117 Y2.7123  
G01 X-0.2140 Y2.7132  
G01 X-0.2162 Y2.7142  
G01 X-0.2165 Y2.7143  
G01 X-0.2168 Y2.7144  
G01 X-0.2192 Y2.7149  
G01 X-0.2216 Y2.7154  
G01 X-0.2219 Y2.7154  
G01 X-0.2222 Y2.7155  
G01 X-0.2247 Y2.7155  
G01 X-0.2271 Y2.7156  
G01 X-0.2274 Y2.7155  
G01 X-0.3746 Y2.7155  
G01 X-0.3769 Y2.7156  
G01 X-0.3773 Y2.7155  
G01 X-0.3778 Y2.7155  
G01 X-0.3800 Y2.7150  
G01 X-0.3823 Y2.7147  
G01 X-0.3827 Y2.7145  
G01 X-0.3832 Y2.7144  
G01 X-0.3853 Y2.7135  
G01 X-0.3875 Y2.7127  
G01 X-0.3879 Y2.7125  
G01 X-0.3883 Y2.7123  
G01 X-0.3902 Y2.7110  
G01 X-0.3922 Y2.7098  
G01 X-0.3925 Y2.7095  
G01 X-0.3928 Y2.7092  
G01 X-0.3945 Y2.7076  
G01 X-0.3962 Y2.7060  
G01 X-0.3964 Y2.7057  
G01 X-0.3967 Y2.7053  
G01 X-0.3980 Y2.7034  
G01 X-0.5060 Y2.5523  
G01 X-0.5097 Y2.5530  
G01 X-0.6702 Y2.5530  
G01 X-0.7079 Y2.6284  
G01 X-0.7050 Y2.6314  
G01 X-0.7050 Y2.6686  
G01 X-0.7220 Y2.6856  
G01 X-0.7220 Y2.7144  
G01 X-0.7050 Y2.7314  
G01 X-0.7050 Y2.7686  
G01 X-0.7314 Y2.7950  
G01 X-0.7686 Y2.7950  
G01 X-0.7856 Y2.7780  
G01 X-0.8144 Y2.7780  
G01 X-0.8314 Y2.7950  
G01 X-0.8686 Y2.7950  
G01 X-0.8856 Y2.7780  
G01 X-0.9144 Y2.7780  
G01 X-0.9313 Y2.7949  
G01 X-0.9479 Y2.8447  
G01 X-0.9481 Y2.8457  
G01 X-0.9488 Y2.8473  
G01 X-0.9493 Y2.8490  
G01 X-0.9498 Y2.8498  
G01 X-0.9502 Y2.8508  
G01 X-0.9512 Y2.8522  
G01 X-0.9520 Y2.8538  
G01 X-0.9527 Y2.8545  
G01 X-0.9533 Y2.8553  
G01 X-0.9545 Y2.8566  
G01 X-0.9557 Y2.8579  
G01 X-0.9564 Y2.8585  
G01 X-0.9572 Y2.8592  
G01 X-0.9586 Y2.8602  
G01 X-0.9600 Y2.8613  
G01 X-0.9609 Y2.8618  
G01 X-0.9617 Y2.8623  
G01 X-0.9634 Y2.8630  
G01 X-0.9649 Y2.8638  
G01 X-0.9659 Y2.8640  
G01 X-0.9668 Y2.8644  
G01 X-0.9686 Y2.8648  
G01 X-0.9703 Y2.8652  
G01 X-0.9713 Y2.8653  
G01 X-0.9722 Y2.8655  
G01 X-0.9740 Y2.8655  
G01 X-0.9758 Y2.8656  
G01 X-0.9768 Y2.8655  
G01 X-1.3979 Y2.8655  
G01 X-1.3986 Y2.8656  
G01 X-1.4007 Y2.8655  
G01 X-1.4028 Y2.8655  
G01 X-1.4034 Y2.8654  
G01 X-1.4041 Y2.8653  
G01 X-1.4061 Y2.8648  
G01 X-1.4082 Y2.8644  
G01 X-1.4088 Y2.8642  
G01 X-1.4095 Y2.8640  
G01 X-1.4113 Y2.8631  
G01 X-1.4133 Y2.8623  
G01 X-1.4138 Y2.8619  
G01 X-1.4145 Y2.8616  
G01 X-1.4161 Y2.8604  
G01 X-1.4178 Y2.8592  
G01 X-1.4183 Y2.8588  
G01 X-1.4189 Y2.8584  
G01 X-1.4203 Y2.8568  
G01 X-1.4217 Y2.8553  
G01 X-1.4221 Y2.8548  
G01 X-1.4226 Y2.8543  
G01 X-1.4237 Y2.8525  
G01 X-1.4248 Y2.8508  
G01 X-1.4251 Y2.8501  
G01 X-1.4612 Y2.7900  
G01 X-1.4623 Y2.7883  
G01 X-1.4626 Y2.7876  
G01 X-1.4629 Y2.7870  
G01 X-1.4636 Y2.7851  
G01 X-1.4644 Y2.7832  
G01 X-1.4646 Y2.7825  
G01 X-1.4648 Y2.7818  
G01 X-1.4651 Y2.7798  
G01 X-1.4655 Y2.7778  
G01 X-1.4655 Y2.7771  
G01 X-1.4656 Y2.7764  
G01 X-1.4655 Y2.7743  
G01 X-1.4655 Y2.5522  
G01 X-1.4656 Y2.5516  
G01 X-1.4655 Y2.5494  
G01 X-1.4655 Y2.5472  
G01 X-1.4654 Y2.5467  
G01 X-1.4654 Y2.5461  
G01 X-1.4649 Y2.5440  
G01 X-1.4644 Y2.5418  
G01 X-1.4642 Y2.5413  
G01 X-1.4641 Y2.5408  
G01 X-1.4632 Y2.5388  
G01 X-1.4623 Y2.5367  
G01 X-1.4620 Y2.5363  
G01 X-1.4618 Y2.5358  
G01 X-1.4605 Y2.5340  
G01 X-1.4592 Y2.5322  
G01 X-1.4589 Y2.5318  
G01 X-1.2617 Y2.2606  
G01 X-1.2616 Y2.2605  
G01 X-1.2600 Y2.2584  
G01 X-1.2585 Y2.2563  
G01 X-1.2584 Y2.2562  
G01 X-1.2583 Y2.2560  
G01 X-1.2564 Y2.2543  
G01 X-1.2545 Y2.2526  
G01 X-1.2543 Y2.2525  
G01 X-1.1340 Y2.1442  
G01 X-1.1340 Y2.1359  
G01 X-1.1280 Y2.1299  
G01 X-1.1280 Y2.0795  
G01 X-1.1952 Y1.8779  
G01 X-1.2090 Y1.8641  
G01 X-1.2090 Y1.8359  
G01 X-1.1891 Y1.8160  
G01 X-1.1609 Y1.8160  
G01 X-1.1410 Y1.8359  
G01 X-1.1410 Y1.8635  
G01 X-1.0738 Y2.0652  
G01 X-1.0731 Y2.0668  
G01 X-1.0729 Y2.0678  
G01 X-1.0726 Y2.0688  
G01 X-1.0723 Y2.0705  
G01 X-1.0720 Y2.0722  
G01 X-1.0720 Y2.0732  
G01 X-1.0719 Y2.0742  
G01 X-1.0720 Y2.0760  
G01 X-1.0720 Y2.1299  
G01 X-1.0660 Y2.1359  
G01 X-1.0660 Y2.1641  
G01 X-1.0859 Y2.1840  
G01 X-1.0944 Y2.1840  
G01 X-1.0947 Y2.1842  
G01 X-1.0953 Y2.1847  
G01 X-1.2166 Y2.2938  
G01 X-1.4095 Y2.5591  
G01 X-1.4095 Y2.7672  
G01 X-1.3841 Y2.8095  
G01 X-0.9952 Y2.8095  
G01 X-0.9849 Y2.7787  
G01 X-0.9950 Y2.7686  
G01 X-0.9950 Y2.7314  
G01 X-0.9686 Y2.7050  
G01 X-0.9314 Y2.7050  
G01 X-0.9144 Y2.7220  
G01 X-0.8856 Y2.7220  
G01 X-0.8686 Y2.7050  
G01 X-0.8314 Y2.7050  
G01 X-0.8144 Y2.7220  
G01 X-0.7856 Y2.7220  
G01 X-0.7780 Y2.7144  
G01 X-0.7780 Y2.6856  
G01 X-0.7856 Y2.6780  
G01 X-0.8144 Y2.6780  
G01 X-0.8314 Y2.6950  
G01 X-0.8686 Y2.6950  
G01 X-0.8856 Y2.6780  
G01 X-0.9144 Y2.6780  
G01 X-0.9314 Y2.6950  
G01 X-0.9686 Y2.6950  
G01 X-0.9950 Y2.6686  
G01 X-0.9950 Y2.6314  
G01 X-0.9686 Y2.6050  
G01 X-0.9314 Y2.6050  
G01 X-0.9144 Y2.6220  
G01 X-0.8856 Y2.6220  
G01 X-0.8686 Y2.6050  
G01 X-0.8314 Y2.6050  
G01 X-0.8144 Y2.6220  
G01 X-0.7856 Y2.6220  
G01 X-0.7686 Y2.6050  
G01 X-0.7588 Y2.6050  
G01 X-0.7130 Y2.5134  
G01 X-0.7123 Y2.5117  
G01 X-0.7118 Y2.5109  
G01 X-0.7113 Y2.5100  
G01 X-0.7102 Y2.5086  
G01 X-0.7092 Y2.5072  
G01 X-0.7085 Y2.5064  
G01 X-0.7079 Y2.5057  
G01 X-0.7066 Y2.5045  
G01 X-0.7053 Y2.5033  
G01 X-0.7045 Y2.5027  
G01 X-0.7038 Y2.5020  
G01 X-0.7022 Y2.5012  
G01 X-0.7008 Y2.5002  
G01 X-0.6998 Y2.4998  
G01 X-0.6990 Y2.4993  
G01 X-0.6973 Y2.4988  
G01 X-0.6957 Y2.4981  
G01 X-0.6947 Y2.4979  
G01 X-0.6937 Y2.4976  
G01 X-0.6920 Y2.4973  
G01 X-0.6903 Y2.4970  
G01 X-0.6893 Y2.4970  
G01 X-0.6883 Y2.4969  
G01 X-0.6865 Y2.4970  
G01 X-0.5280 Y2.4970  
G01 X-0.5280 Y2.4201  
G01 X-0.5340 Y2.4141  
G01 X-0.5340 Y2.3859  
G01 X-0.5237 Y2.3756  
G01 X-0.5152 Y2.3330  
G01 X-0.5149 Y2.3313  
G01 X-0.5146 Y2.3303  
G01 X-0.5144 Y2.3293  
G01 X-0.5137 Y2.3277  
G01 X-0.4896 Y2.2553  
G01 X-0.4894 Y2.2543  
G01 X-0.4895 Y2.2539  
G01 X-0.4895 Y2.2530  
G01 X-0.7660 Y2.2530  
G01 X-0.7660 Y2.2641  
G01 X-0.7859 Y2.2840  
G01 X-0.8141 Y2.2840  
G01 X-0.8340 Y2.2641  
G01 X-0.8340 Y2.2359  
G01 X-0.8280 Y2.2299  
G01 X-0.8280 Y2.1616  
G01 X-0.8501 Y2.1395  
G01 X-0.8664 Y2.1395  
G01 X-0.8895 Y2.1164  
G01 X-0.8895 Y2.0836  
G01 X-0.8780 Y2.0721  
G01 X-0.8780 Y1.9279  
G01 X-0.8895 Y1.9164  
G01 X-0.8895 Y1.8836  
G01 X-0.8664 Y1.8605  
G01 X-0.8336 Y1.8605  
G01 X-0.8105 Y1.8836  
G01 X-0.8105 Y1.9164  
G01 X-0.8220 Y1.9279  
G01 X-0.8220 Y2.0721  
G01 X-0.8105 Y2.0836  
G01 X-0.8105 Y2.0999  
G01 X-0.7783 Y2.1322  
G01 X-0.7752 Y2.1367  
G01 X-0.7731 Y2.1418  
G01 X-0.7720 Y2.1472  
G01 X-0.7720 Y2.1970  
G01 X-0.4867 Y2.1970  
G01 X-0.5014 Y2.1234  
G01 X-0.5110 Y2.1090  
G01 X-0.5141 Y2.1090  
G01 X-0.5340 Y2.0891  
G01 X-0.5340 Y2.0609  
G01 X-0.5141 Y2.0410  
G01 X-0.4859 Y2.0410  
G01 X-0.4660 Y2.0609  
G01 X-0.4660 Y2.0755  
G01 X-0.4517 Y2.0969  
G01 X-0.4502 Y2.0992  
G01 X-0.4491 Y2.1018  
G01 X-0.4481 Y2.1043  
G01 X-0.4475 Y2.1070  
G01 X-0.4251 Y2.2191  
G01 X-0.4248 Y2.2193  
G01 X-0.4193 Y2.2248  
G01 X-0.4150 Y2.2313  
G01 X-0.4120 Y2.2385  
G01 X-0.4105 Y2.2461  
G01 X-0.4105 Y2.2539  
G01 X-0.4120 Y2.2615  
G01 X-0.4150 Y2.2687  
G01 X-0.4193 Y2.2752  
G01 X-0.4248 Y2.2807  
G01 X-0.4313 Y2.2850  
G01 X-0.4385 Y2.2880  
G01 X-0.4417 Y2.2886  
G01 X-0.4604 Y2.3447  
G01 X-0.4682 Y2.3837  
G01 X-0.4660 Y2.3859  
G01 X-0.4660 Y2.4141  
G01 X-0.4720 Y2.4201  
G01 X-0.4720 Y2.5035  
G01 X-0.3606 Y2.6595  
G01 X-0.2404 Y2.6595  
G01 X-0.1655 Y2.5418  
G01 X-0.1655 Y1.7525  
G01 X-0.2399 Y1.3306  
G01 X-0.3333 Y0.9337  
G01 X-0.3352 Y0.9337  
G01 X-0.3550 Y0.9140  
G01 X-0.3550 Y0.8860  
G01 X-0.3352 Y0.8663  
G01 X-0.3215 Y0.8663  
G01 X-0.1413 Y0.6860  
G01 X-0.1427 Y0.6846  
G01 X-0.1480 Y0.6772  
G01 X-0.1522 Y0.6691  
G01 X-0.1550 Y0.6604  
G01 X-0.1564 Y0.6514  
G01 X-0.1564 Y0.5423  
G01 X-0.1550 Y0.5333  
G01 X-0.1522 Y0.5246  
G01 X-0.1480 Y0.5165  
G01 X-0.1427 Y0.5091  
G01 X-0.1362 Y0.5026  
G00 Z0.0500  
G00 X-0.7160 Y0.5359  
G01 Z-0.0035 F10    
G01 X-0.7160 Y0.5641  F20    
G01 X-0.7359 Y0.5840  
G01 X-0.7501 Y0.5840  
G01 X-0.8660 Y0.6999  
G01 X-0.8660 Y0.7141  
G01 X-0.8859 Y0.7340  
G01 X-0.9141 Y0.7340  
G01 X-0.9340 Y0.7141  
G01 X-0.9340 Y0.6859  
G01 X-0.9598 Y0.6340  
G01 X-0.9641 Y0.6340  
G01 X-0.9840 Y0.6141  
G01 X-0.9840 Y0.5859  
G01 X-0.9641 Y0.5660  
G01 X-0.9359 Y0.5660  
G01 X-0.9160 Y0.5859  
G01 X-0.9160 Y0.6141  
G01 X-0.8934 Y0.6595  
G01 X-0.7840 Y0.5501  
G01 X-0.7840 Y0.5359  
G01 X-0.7641 Y0.5160  
G01 X-0.7359 Y0.5160  
G01 X-0.7160 Y0.5359  
G00 Z0.0500  
G00 X-0.5209 Y0.8775  
G01 Z-0.0035 F10    
G01 X-0.5195 Y0.8769  F20    
G01 X-0.5187 Y0.8768  
G01 X-0.5178 Y0.8765  
G01 X-0.5163 Y0.8763  
G01 X-0.5149 Y0.8760  
G01 X-0.5140 Y0.8760  
G01 X-0.5132 Y0.8759  
G01 X-0.5116 Y0.8760  
G01 X-0.5025 Y0.8760  
G01 X-0.4927 Y0.8663  
G01 X-0.4648 Y0.8663  
G01 X-0.4450 Y0.8860  
G01 X-0.4450 Y0.9140  
G01 X-0.4648 Y0.9337  
G01 X-0.4927 Y0.9337  
G01 X-0.5025 Y0.9240  
G01 X-0.5086 Y0.9240  
G01 X-0.8041 Y1.0225  
G01 X-0.8055 Y1.0231  
G01 X-0.8063 Y1.0232  
G01 X-0.8072 Y1.0235  
G01 X-0.8087 Y1.0237  
G01 X-0.8101 Y1.0240  
G01 X-0.8110 Y1.0240  
G01 X-0.8118 Y1.0241  
G01 X-0.8134 Y1.0240  
G01 X-0.8759 Y1.0240  
G01 X-0.8859 Y1.0340  
G01 X-0.9141 Y1.0340  
G01 X-0.9183 Y1.0297  
G01 X-0.9516 Y1.0464  
G01 X-0.9536 Y1.0474  
G01 X-0.9538 Y1.0475  
G01 X-0.9539 Y1.0475  
G01 X-0.9560 Y1.0481  
G01 X-1.0160 Y1.0652  
G01 X-1.0160 Y1.0793  
G01 X-1.0173 Y1.0859  
G01 X-1.0199 Y1.0921  
G01 X-1.0236 Y1.0977  
G01 X-1.0283 Y1.1024  
G01 X-1.0339 Y1.1061  
G01 X-1.0401 Y1.1087  
G01 X-1.0467 Y1.1100  
G01 X-1.0533 Y1.1100  
G01 X-1.0599 Y1.1087  
G01 X-1.0661 Y1.1061  
G01 X-1.0717 Y1.1024  
G01 X-1.0764 Y1.0977  
G01 X-1.0801 Y1.0921  
G01 X-1.0827 Y1.0859  
G01 X-1.0840 Y1.0793  
G01 X-1.0840 Y1.0207  
G01 X-1.0827 Y1.0141  
G01 X-1.0801 Y1.0079  
G01 X-1.0764 Y1.0023  
G01 X-1.0717 Y0.9976  
G01 X-1.0661 Y0.9939  
G01 X-1.0599 Y0.9913  
G01 X-1.0533 Y0.9900  
G01 X-1.0467 Y0.9900  
G01 X-1.0401 Y0.9913  
G01 X-1.0339 Y0.9939  
G01 X-1.0283 Y0.9976  
G01 X-1.0236 Y1.0023  
G01 X-1.0199 Y1.0079  
G01 X-1.0173 Y1.0141  
G01 X-1.0170 Y1.0156  
G01 X-0.9712 Y1.0025  
G01 X-0.9300 Y0.9819  
G01 X-0.9141 Y0.9660  
G01 X-0.8859 Y0.9660  
G01 X-0.8759 Y0.9760  
G01 X-0.8164 Y0.9760  
G01 X-0.5209 Y0.8775  
G00 Z0.0500  
G00 X-0.4769 Y1.0341  
G01 Z-0.0035 F10    
G01 X-0.4679 Y1.0356  F20    
G01 X-0.4592 Y1.0384  
G01 X-0.4511 Y1.0425  
G01 X-0.4437 Y1.0479  
G01 X-0.4373 Y1.0543  
G01 X-0.4319 Y1.0617  
G01 X-0.4277 Y1.0699  
G01 X-0.4249 Y1.0785  
G01 X-0.4235 Y1.0876  
G01 X-0.4235 Y1.0967  
G01 X-0.4249 Y1.1057  
G01 X-0.4277 Y1.1144  
G01 X-0.4319 Y1.1225  
G01 X-0.4373 Y1.1299  
G01 X-0.4437 Y1.1364  
G01 X-0.4511 Y1.1417  
G01 X-0.4592 Y1.1459  
G01 X-0.4679 Y1.1487  
G01 X-0.4769 Y1.1501  
G01 X-0.5861 Y1.1501  
G01 X-0.5951 Y1.1487  
G01 X-0.6038 Y1.1459  
G01 X-0.6119 Y1.1417  
G01 X-0.6193 Y1.1364  
G01 X-0.6257 Y1.1299  
G01 X-0.6311 Y1.1225  
G01 X-0.6352 Y1.1144  
G01 X-0.6381 Y1.1057  
G01 X-0.6395 Y1.0967  
G01 X-0.6395 Y1.0876  
G01 X-0.6381 Y1.0785  
G01 X-0.6352 Y1.0699  
G01 X-0.6311 Y1.0617  
G01 X-0.6257 Y1.0543  
G01 X-0.6193 Y1.0479  
G01 X-0.6119 Y1.0425  
G01 X-0.6038 Y1.0384  
G01 X-0.5951 Y1.0356  
G01 X-0.5861 Y1.0341  
G01 X-0.4769 Y1.0341  
G00 Z0.0500  
G00 X-0.5816 Y1.5038  
G01 Z-0.0035 F10    
G01 X-0.3842 Y1.6519  F20    
G01 X-0.3828 Y1.6527  
G01 X-0.3820 Y1.6535  
G01 X-0.3810 Y1.6543  
G01 X-0.3799 Y1.6554  
G01 X-0.3788 Y1.6565  
G01 X-0.3781 Y1.6575  
G01 X-0.3773 Y1.6584  
G01 X-0.3765 Y1.6597  
G01 X-0.3756 Y1.6610  
G01 X-0.3751 Y1.6621  
G01 X-0.3745 Y1.6631  
G01 X-0.3740 Y1.6646  
G01 X-0.3733 Y1.6660  
G01 X-0.3731 Y1.6672  
G01 X-0.3727 Y1.6683  
G01 X-0.3724 Y1.6699  
G01 X-0.2982 Y1.9914  
G01 X-0.2981 Y1.9918  
G01 X-0.2976 Y1.9941  
G01 X-0.2971 Y1.9964  
G01 X-0.2971 Y1.9968  
G01 X-0.2970 Y1.9972  
G01 X-0.2970 Y1.9996  
G01 X-0.2969 Y2.0019  
G01 X-0.2970 Y2.0023  
G01 X-0.2970 Y2.1479  
G01 X-0.2969 Y2.1486  
G01 X-0.2970 Y2.1507  
G01 X-0.2970 Y2.1528  
G01 X-0.2971 Y2.1534  
G01 X-0.2972 Y2.1541  
G01 X-0.2977 Y2.1561  
G01 X-0.2981 Y2.1582  
G01 X-0.2983 Y2.1588  
G01 X-0.3157 Y2.2284  
G01 X-0.3105 Y2.2336  
G01 X-0.3105 Y2.2664  
G01 X-0.3010 Y2.2853  
G01 X-0.3009 Y2.2855  
G01 X-0.2998 Y2.2878  
G01 X-0.2987 Y2.2899  
G01 X-0.2986 Y2.2902  
G01 X-0.2985 Y2.2905  
G01 X-0.2979 Y2.2929  
G01 X-0.2973 Y2.2953  
G01 X-0.2972 Y2.2956  
G01 X-0.2775 Y2.3744  
G01 X-0.2660 Y2.3859  
G01 X-0.2660 Y2.4141  
G01 X-0.2720 Y2.4201  
G01 X-0.2720 Y2.5651  
G01 X-0.2700 Y2.5665  
G01 X-0.2649 Y2.5716  
G01 X-0.2607 Y2.5775  
G01 X-0.2574 Y2.5839  
G01 X-0.2551 Y2.5908  
G01 X-0.2540 Y2.5980  
G01 X-0.2540 Y2.6052  
G01 X-0.2551 Y2.6123  
G01 X-0.2574 Y2.6192  
G01 X-0.2607 Y2.6257  
G01 X-0.2649 Y2.6315  
G01 X-0.2700 Y2.6367  
G01 X-0.2759 Y2.6409  
G01 X-0.2823 Y2.6442  
G01 X-0.2892 Y2.6464  
G01 X-0.2964 Y2.6476  
G01 X-0.3036 Y2.6476  
G01 X-0.3108 Y2.6464  
G01 X-0.3177 Y2.6442  
G01 X-0.3241 Y2.6409  
G01 X-0.3300 Y2.6367  
G01 X-0.3351 Y2.6315  
G01 X-0.3393 Y2.6257  
G01 X-0.3426 Y2.6192  
G01 X-0.3449 Y2.6123  
G01 X-0.3460 Y2.6052  
G01 X-0.3460 Y2.5980  
G01 X-0.3449 Y2.5908  
G01 X-0.3426 Y2.5839  
G01 X-0.3393 Y2.5775  
G01 X-0.3351 Y2.5716  
G01 X-0.3300 Y2.5665  
G01 X-0.3280 Y2.5651  
G01 X-0.3280 Y2.4201  
G01 X-0.3340 Y2.4141  
G01 X-0.3340 Y2.3859  
G01 X-0.3327 Y2.3846  
G01 X-0.3514 Y2.3098  
G01 X-0.3616 Y2.2895  
G01 X-0.3664 Y2.2895  
G01 X-0.3895 Y2.2664  
G01 X-0.3895 Y2.2336  
G01 X-0.3699 Y2.2140  
G01 X-0.3530 Y2.1466  
G01 X-0.3530 Y2.0032  
G01 X-0.4250 Y1.6913  
G01 X-0.6093 Y1.5530  
G01 X-0.7278 Y1.5530  
G01 X-0.7332 Y1.5519  
G01 X-0.7383 Y1.5498  
G01 X-0.7428 Y1.5467  
G01 X-0.9116 Y1.3780  
G01 X-1.0160 Y1.3780  
G01 X-1.0160 Y1.3793  
G01 X-1.0173 Y1.3859  
G01 X-1.0199 Y1.3921  
G01 X-1.0236 Y1.3977  
G01 X-1.0283 Y1.4024  
G01 X-1.0339 Y1.4061  
G01 X-1.0401 Y1.4087  
G01 X-1.0467 Y1.4100  
G01 X-1.0533 Y1.4100  
G01 X-1.0599 Y1.4087  
G01 X-1.0661 Y1.4061  
G01 X-1.0717 Y1.4024  
G01 X-1.0764 Y1.3977  
G01 X-1.0801 Y1.3921  
G01 X-1.0827 Y1.3859  
G01 X-1.0840 Y1.3793  
G01 X-1.0840 Y1.3207  
G01 X-1.0827 Y1.3141  
G01 X-1.0801 Y1.3079  
G01 X-1.0764 Y1.3023  
G01 X-1.0717 Y1.2976  
G01 X-1.0661 Y1.2939  
G01 X-1.0599 Y1.2913  
G01 X-1.0533 Y1.2900  
G01 X-1.0467 Y1.2900  
G01 X-1.0401 Y1.2913  
G01 X-1.0339 Y1.2939  
G01 X-1.0283 Y1.2976  
G01 X-1.0236 Y1.3023  
G01 X-1.0199 Y1.3079  
G01 X-1.0173 Y1.3141  
G01 X-1.0160 Y1.3207  
G01 X-1.0160 Y1.3220  
G01 X-0.8972 Y1.3220  
G01 X-0.8918 Y1.3231  
G01 X-0.8867 Y1.3252  
G01 X-0.8822 Y1.3283  
G01 X-0.7134 Y1.4970  
G01 X-0.6020 Y1.4970  
G01 X-0.6012 Y1.4969  
G01 X-0.5992 Y1.4970  
G01 X-0.5972 Y1.4970  
G01 X-0.5965 Y1.4971  
G01 X-0.5957 Y1.4972  
G01 X-0.5938 Y1.4977  
G01 X-0.5918 Y1.4981  
G01 X-0.5911 Y1.4984  
G01 X-0.5904 Y1.4986  
G01 X-0.5886 Y1.4994  
G01 X-0.5867 Y1.5002  
G01 X-0.5861 Y1.5006  
G01 X-0.5854 Y1.5009  
G01 X-0.5838 Y1.5021  
G01 X-0.5822 Y1.5033  
G01 X-0.5816 Y1.5038  
G00 Z0.0500  
G00 X-0.5910 Y1.6109  
G01 Z-0.0035 F10    
G01 X-0.5910 Y1.6391  F20    
G01 X-0.5923 Y1.6404  
G01 X-0.5403 Y1.7617  
G01 X-0.5385 Y1.7620  
G01 X-0.5313 Y1.7650  
G01 X-0.5248 Y1.7693  
G01 X-0.5193 Y1.7748  
G01 X-0.5150 Y1.7813  
G01 X-0.5120 Y1.7885  
G01 X-0.5105 Y1.7961  
G01 X-0.5105 Y1.8039  
G01 X-0.5120 Y1.8115  
G01 X-0.5130 Y1.8139  
G01 X-0.4684 Y1.8853  
G01 X-0.4671 Y1.8873  
G01 X-0.4659 Y1.8893  
G01 X-0.4650 Y1.8915  
G01 X-0.4642 Y1.8937  
G01 X-0.4371 Y1.9660  
G01 X-0.4359 Y1.9660  
G01 X-0.4160 Y1.9859  
G01 X-0.4160 Y2.0141  
G01 X-0.4359 Y2.0340  
G01 X-0.4641 Y2.0340  
G01 X-0.4840 Y2.0141  
G01 X-0.4840 Y1.9859  
G01 X-0.4818 Y1.9837  
G01 X-0.5091 Y1.9107  
G01 X-0.5536 Y1.8395  
G01 X-0.5539 Y1.8395  
G01 X-0.5615 Y1.8380  
G01 X-0.5687 Y1.8350  
G01 X-0.5752 Y1.8307  
G01 X-0.5807 Y1.8252  
G01 X-0.5850 Y1.8187  
G01 X-0.5880 Y1.8115  
G01 X-0.5895 Y1.8039  
G01 X-0.5895 Y1.7961  
G01 X-0.5880 Y1.7885  
G01 X-0.5850 Y1.7813  
G01 X-0.5845 Y1.7805  
G01 X-0.6365 Y1.6590  
G01 X-0.6391 Y1.6590  
G01 X-0.6590 Y1.6391  
G01 X-0.6590 Y1.6109  
G01 X-0.6391 Y1.5910  
G01 X-0.6109 Y1.5910  
G01 X-0.5910 Y1.6109  
G00 Z0.0500  
G00 X-0.6105 Y1.7836  
G01 Z-0.0035 F10    
G01 X-0.6105 Y1.8164  F20    
G01 X-0.6336 Y1.8395  
G01 X-0.6664 Y1.8395  
G01 X-0.6895 Y1.8164  
G01 X-0.6895 Y1.7883  
G01 X-0.9242 Y1.4865  
G01 X-1.1319 Y1.4865  
G01 X-1.1449 Y1.5320  
G01 X-1.1410 Y1.5359  
G01 X-1.1410 Y1.5641  
G01 X-1.1609 Y1.5840  
G01 X-1.1891 Y1.5840  
G01 X-1.2090 Y1.5641  
G01 X-1.2090 Y1.5359  
G01 X-1.1907 Y1.5176  
G01 X-1.1740 Y1.4591  
G01 X-1.1740 Y1.4001  
G01 X-1.1764 Y1.3977  
G01 X-1.1801 Y1.3921  
G01 X-1.1827 Y1.3859  
G01 X-1.1840 Y1.3793  
G01 X-1.1840 Y1.3207  
G01 X-1.1827 Y1.3141  
G01 X-1.1801 Y1.3079  
G01 X-1.1764 Y1.3023  
G01 X-1.1717 Y1.2976  
G01 X-1.1661 Y1.2939  
G01 X-1.1599 Y1.2913  
G01 X-1.1533 Y1.2900  
G01 X-1.1467 Y1.2900  
G01 X-1.1401 Y1.2913  
G01 X-1.1339 Y1.2939  
G01 X-1.1283 Y1.2976  
G01 X-1.1236 Y1.3023  
G01 X-1.1199 Y1.3079  
G01 X-1.1173 Y1.3141  
G01 X-1.1160 Y1.3207  
G01 X-1.1160 Y1.3793  
G01 X-1.1173 Y1.3859  
G01 X-1.1199 Y1.3921  
G01 X-1.1236 Y1.3977  
G01 X-1.1260 Y1.4001  
G01 X-1.1260 Y1.4385  
G01 X-0.9134 Y1.4385  
G01 X-0.9119 Y1.4384  
G01 X-0.9110 Y1.4385  
G01 X-0.9101 Y1.4385  
G01 X-0.9087 Y1.4388  
G01 X-0.9072 Y1.4390  
G01 X-0.9064 Y1.4393  
G01 X-0.9055 Y1.4394  
G01 X-0.9041 Y1.4400  
G01 X-0.9027 Y1.4405  
G01 X-0.9019 Y1.4409  
G01 X-0.9011 Y1.4412  
G01 X-0.8999 Y1.4421  
G01 X-0.8986 Y1.4428  
G01 X-0.8979 Y1.4434  
G01 X-0.8972 Y1.4439  
G01 X-0.8961 Y1.4449  
G01 X-0.8950 Y1.4459  
G01 X-0.8945 Y1.4466  
G01 X-0.8939 Y1.4472  
G01 X-0.8930 Y1.4484  
G01 X-0.6503 Y1.7605  
G01 X-0.6336 Y1.7605  
G01 X-0.6105 Y1.7836  
G00 Z0.0500  
G00 X-0.8120 Y1.7885  
G01 Z-0.0035 F10    
G01 X-0.8105 Y1.7961  F20    
G01 X-0.8105 Y1.8039  
G01 X-0.8120 Y1.8115  
G01 X-0.8150 Y1.8187  
G01 X-0.8193 Y1.8252  
G01 X-0.8248 Y1.8307  
G01 X-0.8313 Y1.8350  
G01 X-0.8385 Y1.8380  
G01 X-0.8461 Y1.8395  
G01 X-0.8539 Y1.8395  
G01 X-0.8615 Y1.8380  
G01 X-0.8687 Y1.8350  
G01 X-0.8752 Y1.8307  
G01 X-0.8807 Y1.8252  
G01 X-0.8850 Y1.8187  
G01 X-0.8880 Y1.8115  
G01 X-0.8895 Y1.8039  
G01 X-0.8895 Y1.7961  
G01 X-0.8880 Y1.7885  
G01 X-0.8874 Y1.7871  
G01 X-0.8941 Y1.7771  
G01 X-0.8947 Y1.7764  
G01 X-0.8954 Y1.7751  
G01 X-0.8963 Y1.7738  
G01 X-0.8966 Y1.7731  
G01 X-0.8970 Y1.7723  
G01 X-0.8975 Y1.7709  
G01 X-0.8981 Y1.7695  
G01 X-0.8982 Y1.7686  
G01 X-0.9225 Y1.6958  
G01 X-0.9372 Y1.6590  
G01 X-0.9391 Y1.6590  
G01 X-0.9590 Y1.6391  
G01 X-0.9590 Y1.6348  
G01 X-1.0608 Y1.5839  
G01 X-1.0891 Y1.5840  
G01 X-1.1090 Y1.5641  
G01 X-1.1090 Y1.5359  
G01 X-1.0891 Y1.5160  
G01 X-1.0609 Y1.5160  
G01 X-1.0410 Y1.5359  
G01 X-1.0410 Y1.5402  
G01 X-0.9392 Y1.5911  
G01 X-0.9109 Y1.5910  
G01 X-0.8910 Y1.6109  
G01 X-0.8910 Y1.6391  
G01 X-0.8928 Y1.6409  
G01 X-0.8783 Y1.6771  
G01 X-0.8780 Y1.6777  
G01 X-0.8775 Y1.6792  
G01 X-0.8768 Y1.6808  
G01 X-0.8767 Y1.6815  
G01 X-0.8532 Y1.7519  
G01 X-0.8475 Y1.7605  
G01 X-0.8461 Y1.7605  
G01 X-0.8385 Y1.7620  
G01 X-0.8313 Y1.7650  
G01 X-0.8248 Y1.7693  
G01 X-0.8193 Y1.7748  
G01 X-0.8150 Y1.7813  
G01 X-0.8120 Y1.7885  
G00 Z0.0500  
G00 X-1.0348 Y1.7418  
G01 Z-0.0035 F10    
G01 X-1.0448 Y1.8321  F20    
G01 X-1.0410 Y1.8359  
G01 X-1.0410 Y1.8505  
G01 X-1.0018 Y1.9093  
G01 X-1.0004 Y1.9114  
G01 X-1.0003 Y1.9116  
G01 X-1.0002 Y1.9118  
G01 X-0.9992 Y1.9141  
G01 X-0.9352 Y2.0634  
G01 X-0.9313 Y2.0650  
G01 X-0.9248 Y2.0693  
G01 X-0.9193 Y2.0748  
G01 X-0.9150 Y2.0813  
G01 X-0.9120 Y2.0885  
G01 X-0.9105 Y2.0961  
G01 X-0.9105 Y2.1039  
G01 X-0.9120 Y2.1115  
G01 X-0.9150 Y2.1187  
G01 X-0.9193 Y2.1252  
G01 X-0.9248 Y2.1307  
G01 X-0.9313 Y2.1350  
G01 X-0.9385 Y2.1380  
G01 X-0.9461 Y2.1395  
G01 X-0.9499 Y2.1395  
G01 X-0.9595 Y2.1491  
G01 X-0.9595 Y2.2403  
G01 X-0.9606 Y2.2457  
G01 X-0.9627 Y2.2508  
G01 X-0.9658 Y2.2553  
G01 X-0.9660 Y2.2556  
G01 X-0.9660 Y2.2641  
G01 X-0.9720 Y2.2701  
G01 X-0.9720 Y2.3623  
G01 X-0.9685 Y2.3649  
G01 X-0.9633 Y2.3700  
G01 X-0.9591 Y2.3759  
G01 X-0.9558 Y2.3823  
G01 X-0.9536 Y2.3892  
G01 X-0.9524 Y2.3964  
G01 X-0.9524 Y2.4036  
G01 X-0.9536 Y2.4108  
G01 X-0.9558 Y2.4177  
G01 X-0.9591 Y2.4241  
G01 X-0.9633 Y2.4300  
G01 X-0.9685 Y2.4351  
G01 X-0.9743 Y2.4393  
G01 X-0.9808 Y2.4426  
G01 X-0.9877 Y2.4449  
G01 X-0.9948 Y2.4460  
G01 X-1.0020 Y2.4460  
G01 X-1.0092 Y2.4449  
G01 X-1.0161 Y2.4426  
G01 X-1.0225 Y2.4393  
G01 X-1.0284 Y2.4351  
G01 X-1.0335 Y2.4300  
G01 X-1.0378 Y2.4241  
G01 X-1.0411 Y2.4177  
G01 X-1.0433 Y2.4108  
G01 X-1.0444 Y2.4036  
G01 X-1.0444 Y2.3964  
G01 X-1.0433 Y2.3892  
G01 X-1.0411 Y2.3823  
G01 X-1.0378 Y2.3759  
G01 X-1.0335 Y2.3700  
G01 X-1.0284 Y2.3649  
G01 X-1.0280 Y2.3646  
G01 X-1.0280 Y2.2701  
G01 X-1.0340 Y2.2641  
G01 X-1.0340 Y2.2359  
G01 X-1.0155 Y2.2174  
G01 X-1.0155 Y2.1347  
G01 X-1.0144 Y2.1293  
G01 X-1.0123 Y2.1242  
G01 X-1.0092 Y2.1197  
G01 X-0.9895 Y2.0999  
G01 X-0.9895 Y2.0961  
G01 X-0.9880 Y2.0885  
G01 X-0.9867 Y2.0854  
G01 X-1.0497 Y1.9384  
G01 X-1.0860 Y1.8840  
G01 X-1.0891 Y1.8840  
G01 X-1.1090 Y1.8641  
G01 X-1.1090 Y1.8359  
G01 X-1.1007 Y1.8276  
G01 X-1.0938 Y1.7655  
G01 X-1.1365 Y1.7655  
G01 X-1.1383 Y1.7656  
G01 X-1.1393 Y1.7655  
G01 X-1.1403 Y1.7655  
G01 X-1.1420 Y1.7652  
G01 X-1.1437 Y1.7649  
G01 X-1.1447 Y1.7646  
G01 X-1.1457 Y1.7644  
G01 X-1.1473 Y1.7637  
G01 X-1.4822 Y1.6521  
G01 X-1.4832 Y1.6519  
G01 X-1.4848 Y1.6512  
G01 X-1.4865 Y1.6507  
G01 X-1.4873 Y1.6502  
G01 X-1.4883 Y1.6498  
G01 X-1.4897 Y1.6488  
G01 X-1.4913 Y1.6480  
G01 X-1.4920 Y1.6473  
G01 X-1.4928 Y1.6467  
G01 X-1.4941 Y1.6455  
G01 X-1.4954 Y1.6443  
G01 X-1.4960 Y1.6436  
G01 X-1.4967 Y1.6428  
G01 X-1.4977 Y1.6414  
G01 X-1.4988 Y1.6400  
G01 X-1.4993 Y1.6391  
G01 X-1.4998 Y1.6383  
G01 X-1.5005 Y1.6366  
G01 X-1.5013 Y1.6351  
G01 X-1.5015 Y1.6341  
G01 X-1.5019 Y1.6332  
G01 X-1.5023 Y1.6314  
G01 X-1.5027 Y1.6297  
G01 X-1.5028 Y1.6287  
G01 X-1.5030 Y1.6278  
G01 X-1.5030 Y1.6260  
G01 X-1.5031 Y1.6242  
G01 X-1.5030 Y1.6232  
G01 X-1.5030 Y1.3011  
G01 X-1.5031 Y1.2995  
G01 X-1.5030 Y1.2984  
G01 X-1.5030 Y1.2972  
G01 X-1.5027 Y1.2957  
G01 X-1.5025 Y1.2941  
G01 X-1.5021 Y1.2930  
G01 X-1.5019 Y1.2918  
G01 X-1.5013 Y1.2903  
G01 X-1.5008 Y1.2888  
G01 X-1.5003 Y1.2878  
G01 X-1.4998 Y1.2867  
G01 X-1.4989 Y1.2854  
G01 X-1.3840 Y1.0785  
G01 X-1.3840 Y1.0207  
G01 X-1.3827 Y1.0141  
G01 X-1.3801 Y1.0079  
G01 X-1.3764 Y1.0023  
G01 X-1.3717 Y0.9976  
G01 X-1.3661 Y0.9939  
G01 X-1.3599 Y0.9913  
G01 X-1.3533 Y0.9900  
G01 X-1.3467 Y0.9900  
G01 X-1.3401 Y0.9913  
G01 X-1.3339 Y0.9939  
G01 X-1.3283 Y0.9976  
G01 X-1.3236 Y1.0023  
G01 X-1.3199 Y1.0079  
G01 X-1.3173 Y1.0141  
G01 X-1.3160 Y1.0207  
G01 X-1.3160 Y1.0793  
G01 X-1.3173 Y1.0859  
G01 X-1.3199 Y1.0921  
G01 X-1.3236 Y1.0977  
G01 X-1.3283 Y1.1024  
G01 X-1.3339 Y1.1061  
G01 X-1.3357 Y1.1069  
G01 X-1.4470 Y1.3073  
G01 X-1.4470 Y1.6048  
G01 X-1.1330 Y1.7095  
G01 X-1.0637 Y1.7095  
G01 X-1.0621 Y1.7094  
G01 X-1.0609 Y1.7095  
G01 X-1.0597 Y1.7095  
G01 X-1.0582 Y1.7098  
G01 X-1.0567 Y1.7100  
G01 X-1.0555 Y1.7103  
G01 X-1.0543 Y1.7106  
G01 X-1.0529 Y1.7112  
G01 X-1.0514 Y1.7116  
G01 X-1.0504 Y1.7122  
G01 X-1.0492 Y1.7127  
G01 X-1.0479 Y1.7136  
G01 X-1.0466 Y1.7143  
G01 X-1.0457 Y1.7151  
G01 X-1.0447 Y1.7158  
G01 X-1.0435 Y1.7169  
G01 X-1.0424 Y1.7179  
G01 X-1.0416 Y1.7188  
G01 X-1.0408 Y1.7197  
G01 X-1.0399 Y1.7209  
G01 X-1.0389 Y1.7222  
G01 X-1.0384 Y1.7232  
G01 X-1.0377 Y1.7242  
G01 X-1.0371 Y1.7257  
G01 X-1.0364 Y1.7271  
G01 X-1.0360 Y1.7282  
G01 X-1.0356 Y1.7293  
G01 X-1.0353 Y1.7309  
G01 X-1.0348 Y1.7324  
G01 X-1.0347 Y1.7336  
G01 X-1.0345 Y1.7347  
G01 X-1.0345 Y1.7363  
G01 X-1.0344 Y1.7379  
G01 X-1.0345 Y1.7390  
G01 X-1.0345 Y1.7403  
G01 X-1.0348 Y1.7418  
G00 Z0.0500  
G00 X-1.2410 Y1.8359  
G01 Z-0.0035 F10    
G01 X-1.2410 Y1.8641  F20    
G01 X-1.2609 Y1.8840  
G01 X-1.2652 Y1.8840  
G01 X-1.3160 Y1.9857  
G01 X-1.3160 Y2.0293  
G01 X-1.3173 Y2.0359  
G01 X-1.3199 Y2.0421  
G01 X-1.3236 Y2.0477  
G01 X-1.3283 Y2.0524  
G01 X-1.3339 Y2.0561  
G01 X-1.3401 Y2.0587  
G01 X-1.3467 Y2.0600  
G01 X-1.3533 Y2.0600  
G01 X-1.3599 Y2.0587  
G01 X-1.3661 Y2.0561  
G01 X-1.3717 Y2.0524  
G01 X-1.3764 Y2.0477  
G01 X-1.3801 Y2.0421  
G01 X-1.3827 Y2.0359  
G01 X-1.3840 Y2.0293  
G01 X-1.3840 Y1.9707  
G01 X-1.3827 Y1.9641  
G01 X-1.3801 Y1.9579  
G01 X-1.3764 Y1.9523  
G01 X-1.3717 Y1.9476  
G01 X-1.3661 Y1.9439  
G01 X-1.3599 Y1.9413  
G01 X-1.3533 Y1.9400  
G01 X-1.3468 Y1.9400  
G01 X-1.3138 Y1.8740  
G01 X-1.3509 Y1.8740  
G01 X-1.3609 Y1.8840  
G01 X-1.3891 Y1.8840  
G01 X-1.4090 Y1.8641  
G01 X-1.4090 Y1.8359  
G01 X-1.3891 Y1.8160  
G01 X-1.3609 Y1.8160  
G01 X-1.3509 Y1.8260  
G01 X-1.2991 Y1.8260  
G01 X-1.2891 Y1.8160  
G01 X-1.2609 Y1.8160  
G01 X-1.2410 Y1.8359  
G00 Z0.0500  
G00 X-1.2401 Y1.9413  
G01 Z-0.0035 F10    
G01 X-1.2339 Y1.9439  F20    
G01 X-1.2283 Y1.9476  
G01 X-1.2236 Y1.9523  
G01 X-1.2199 Y1.9579  
G01 X-1.2173 Y1.9641  
G01 X-1.2160 Y1.9707  
G01 X-1.2160 Y2.0293  
G01 X-1.2173 Y2.0359  
G01 X-1.2199 Y2.0421  
G01 X-1.2236 Y2.0477  
G01 X-1.2283 Y2.0524  
G01 X-1.2339 Y2.0561  
G01 X-1.2401 Y2.0587  
G01 X-1.2467 Y2.0600  
G01 X-1.2482 Y2.0600  
G01 X-1.2769 Y2.1319  
G01 X-1.2769 Y2.1320  
G01 X-1.2778 Y2.1341  
G01 X-1.2786 Y2.1361  
G01 X-1.2787 Y2.1362  
G01 X-1.2787 Y2.1364  
G01 X-1.2800 Y2.1382  
G01 X-1.2812 Y2.1401  
G01 X-1.2813 Y2.1402  
G01 X-1.2814 Y2.1403  
G01 X-1.2829 Y2.1419  
G01 X-1.2845 Y2.1435  
G01 X-1.2846 Y2.1435  
G01 X-1.3097 Y2.1686  
G01 X-1.3136 Y2.1713  
G01 X-1.3180 Y2.1731  
G01 X-1.3226 Y2.1740  
G01 X-1.3759 Y2.1740  
G01 X-1.3859 Y2.1840  
G01 X-1.4141 Y2.1840  
G01 X-1.4340 Y2.1641  
G01 X-1.4340 Y2.1359  
G01 X-1.4141 Y2.1160  
G01 X-1.3859 Y2.1160  
G01 X-1.3759 Y2.1260  
G01 X-1.3349 Y2.1260  
G01 X-1.3205 Y2.1115  
G01 X-1.2840 Y2.0204  
G01 X-1.2840 Y1.9707  
G01 X-1.2827 Y1.9641  
G01 X-1.2801 Y1.9579  
G01 X-1.2764 Y1.9523  
G01 X-1.2717 Y1.9476  
G01 X-1.2661 Y1.9439  
G01 X-1.2599 Y1.9413  
G01 X-1.2533 Y1.9400  
G01 X-1.2467 Y1.9400  
G01 X-1.2401 Y1.9413  
G00 Z0.0500  
G00 X-1.4236 Y1.9523  
G01 Z-0.0035 F10    
G01 X-1.4199 Y1.9579  F20    
G01 X-1.4173 Y1.9641  
G01 X-1.4160 Y1.9707  
G01 X-1.4160 Y2.0293  
G01 X-1.4173 Y2.0359  
G01 X-1.4199 Y2.0421  
G01 X-1.4236 Y2.0477  
G01 X-1.4283 Y2.0524  
G01 X-1.4339 Y2.0561  
G01 X-1.4401 Y2.0587  
G01 X-1.4467 Y2.0600  
G01 X-1.4533 Y2.0600  
G01 X-1.4599 Y2.0587  
G01 X-1.4661 Y2.0561  
G01 X-1.4717 Y2.0524  
G01 X-1.4764 Y2.0477  
G01 X-1.4801 Y2.0421  
G01 X-1.4827 Y2.0359  
G01 X-1.4840 Y2.0293  
G01 X-1.4840 Y1.9707  
G01 X-1.4827 Y1.9641  
G01 X-1.4801 Y1.9579  
G01 X-1.4764 Y1.9523  
G01 X-1.4717 Y1.9476  
G01 X-1.4661 Y1.9439  
G01 X-1.4599 Y1.9413  
G01 X-1.4533 Y1.9400  
G01 X-1.4467 Y1.9400  
G01 X-1.4401 Y1.9413  
G01 X-1.4339 Y1.9439  
G01 X-1.4283 Y1.9476  
G01 X-1.4236 Y1.9523  
G00 Z0.0500  
G00 X-1.3090 Y1.5641  
G01 Z-0.0035 F10    
G01 X-1.3090 Y1.5359  F20    
G01 X-1.2958 Y1.5227  
G01 X-1.2796 Y1.3930  
G01 X-1.2801 Y1.3921  
G01 X-1.2827 Y1.3859  
G01 X-1.2840 Y1.3793  
G01 X-1.2840 Y1.3207  
G01 X-1.2827 Y1.3141  
G01 X-1.2801 Y1.3079  
G01 X-1.2764 Y1.3023  
G01 X-1.2717 Y1.2976  
G01 X-1.2661 Y1.2939  
G01 X-1.2599 Y1.2913  
G01 X-1.2533 Y1.2900  
G01 X-1.2467 Y1.2900  
G01 X-1.2401 Y1.2913  
G01 X-1.2339 Y1.2939  
G01 X-1.2283 Y1.2976  
G01 X-1.2236 Y1.3023  
G01 X-1.2199 Y1.3079  
G01 X-1.2173 Y1.3141  
G01 X-1.2160 Y1.3207  
G01 X-1.2160 Y1.3793  
G01 X-1.2173 Y1.3859  
G01 X-1.2199 Y1.3921  
G01 X-1.2236 Y1.3977  
G01 X-1.2283 Y1.4024  
G01 X-1.2327 Y1.4054  
G01 X-1.2482 Y1.5288  
G01 X-1.2410 Y1.5359  
G01 X-1.2410 Y1.5641  
G01 X-1.2609 Y1.5840  
G01 X-1.2891 Y1.5840  
G01 X-1.3090 Y1.5641  
G00 Z0.0500  
G00 X-1.3314 Y2.6050  
G01 Z-0.0035 F10    
G01 X-1.3050 Y2.6314  F20    
G01 X-1.3050 Y2.6686  
G01 X-1.3314 Y2.6950  
G01 X-1.3686 Y2.6950  
G01 X-1.3950 Y2.6686  
G01 X-1.3950 Y2.6314  
G01 X-1.3686 Y2.6050  
G01 X-1.3314 Y2.6050  
G00 Z0.0500  
G00 X-1.2950 Y2.6314  
G01 Z-0.0035 F10    
G01 X-1.2686 Y2.6050  F20    
G01 X-1.2314 Y2.6050  
G01 X-1.2050 Y2.6314  
G01 X-1.2050 Y2.6686  
G01 X-1.2314 Y2.6950  
G01 X-1.2686 Y2.6950  
G01 X-1.2950 Y2.6686  
G01 X-1.2950 Y2.6314  
G00 Z0.0500  
G00 X-1.1950 Y2.6314  
G01 Z-0.0035 F10    
G01 X-1.1686 Y2.6050  F20    
G01 X-1.1314 Y2.6050  
G01 X-1.1050 Y2.6314  
G01 X-1.1050 Y2.6686  
G01 X-1.1314 Y2.6950  
G01 X-1.1686 Y2.6950  
G01 X-1.1950 Y2.6686  
G01 X-1.1950 Y2.6314  
G00 Z0.0500  
G00 X-1.1950 Y2.7314  
G01 Z-0.0035 F10    
G01 X-1.1686 Y2.7050  F20    
G01 X-1.1314 Y2.7050  
G01 X-1.1050 Y2.7314  
G01 X-1.1050 Y2.7686  
G01 X-1.1314 Y2.7950  
G01 X-1.1686 Y2.7950  
G01 X-1.1950 Y2.7686  
G01 X-1.1950 Y2.7314  
G00 Z0.0500  
G00 X-1.2050 Y2.7314  
G01 Z-0.0035 F10    
G01 X-1.2050 Y2.7686  F20    
G01 X-1.2314 Y2.7950  
G01 X-1.2686 Y2.7950  
G01 X-1.2950 Y2.7686  
G01 X-1.2950 Y2.7314  
G01 X-1.2686 Y2.7050  
G01 X-1.2314 Y2.7050  
G01 X-1.2050 Y2.7314  
G00 Z0.0500  
G00 X-1.3050 Y2.7314  
G01 Z-0.0035 F10    
G01 X-1.3050 Y2.7686  F20    
G01 X-1.3314 Y2.7950  
G01 X-1.3686 Y2.7950  
G01 X-1.3950 Y2.7686  
G01 X-1.3950 Y2.7314  
G01 X-1.3686 Y2.7050  
G01 X-1.3314 Y2.7050  
G01 X-1.3050 Y2.7314  
G00 Z0.0500  
G00 X-1.0950 Y2.7314  
G01 Z-0.0035 F10    
G01 X-1.0740 Y2.7104  F20    
G01 X-1.0740 Y2.6896  
G01 X-1.0950 Y2.6686  
G01 X-1.0950 Y2.6314  
G01 X-1.0740 Y2.6104  
G01 X-1.0740 Y2.5885  
G01 X-1.0741 Y2.5870  
G01 X-1.0740 Y2.5861  
G01 X-1.0740 Y2.5851  
G01 X-1.0737 Y2.5838  
G01 X-1.0736 Y2.5823  
G01 X-1.0733 Y2.5814  
G01 X-1.0731 Y2.5805  
G01 X-1.0725 Y2.5792  
G01 X-1.0721 Y2.5779  
G01 X-1.0716 Y2.5770  
G01 X-1.0713 Y2.5761  
G01 X-1.0705 Y2.5750  
G01 X-1.0698 Y2.5737  
G01 X-1.0692 Y2.5730  
G01 X-1.0686 Y2.5722  
G01 X-1.0676 Y2.5712  
G01 X-1.0667 Y2.5701  
G01 X-1.0660 Y2.5695  
G01 X-1.0653 Y2.5689  
G01 X-1.0641 Y2.5681  
G01 X-0.8476 Y2.3971  
G01 X-0.8476 Y2.3964  
G01 X-0.8464 Y2.3892  
G01 X-0.8442 Y2.3823  
G01 X-0.8409 Y2.3759  
G01 X-0.8367 Y2.3700  
G01 X-0.8315 Y2.3649  
G01 X-0.8257 Y2.3607  
G01 X-0.8192 Y2.3574  
G01 X-0.8123 Y2.3551  
G01 X-0.8052 Y2.3540  
G01 X-0.7980 Y2.3540  
G01 X-0.7908 Y2.3551  
G01 X-0.7839 Y2.3574  
G01 X-0.7775 Y2.3607  
G01 X-0.7716 Y2.3649  
G01 X-0.7665 Y2.3700  
G01 X-0.7622 Y2.3759  
G01 X-0.7589 Y2.3823  
G01 X-0.7567 Y2.3892  
G01 X-0.7556 Y2.3964  
G01 X-0.7556 Y2.4036  
G01 X-0.7567 Y2.4108  
G01 X-0.7589 Y2.4177  
G01 X-0.7622 Y2.4241  
G01 X-0.7665 Y2.4300  
G01 X-0.7716 Y2.4351  
G01 X-0.7775 Y2.4393  
G01 X-0.7839 Y2.4426  
G01 X-0.7908 Y2.4449  
G01 X-0.7980 Y2.4460  
G01 X-0.8052 Y2.4460  
G01 X-0.8123 Y2.4449  
G01 X-0.8192 Y2.4426  
G01 X-0.8244 Y2.4400  
G01 X-1.0260 Y2.5991  
G01 X-1.0260 Y2.6104  
G01 X-1.0050 Y2.6314  
G01 X-1.0050 Y2.6686  
G01 X-1.0260 Y2.6896  
G01 X-1.0260 Y2.7104  
G01 X-1.0050 Y2.7314  
G01 X-1.0050 Y2.7686  
G01 X-1.0314 Y2.7950  
G01 X-1.0686 Y2.7950  
G01 X-1.0950 Y2.7686  
G01 X-1.0950 Y2.7314  
G00 Z0.0500  
G00 X-0.6950 Y2.7314  
G01 Z-0.0035 F10    
G01 X-0.6740 Y2.7104  F20    
G01 X-0.6740 Y2.6896  
G01 X-0.6950 Y2.6686  
G01 X-0.6950 Y2.6314  
G01 X-0.6686 Y2.6050  
G01 X-0.6314 Y2.6050  
G01 X-0.6050 Y2.6314  
G01 X-0.6050 Y2.6686  
G01 X-0.6260 Y2.6896  
G01 X-0.6260 Y2.7104  
G01 X-0.6050 Y2.7314  
G01 X-0.6050 Y2.7486  
G01 X-0.5901 Y2.7635  
G01 X-0.3301 Y2.7635  
G01 X-0.3300 Y2.7633  
G01 X-0.3241 Y2.7591  
G01 X-0.3177 Y2.7558  
G01 X-0.3108 Y2.7536  
G01 X-0.3036 Y2.7524  
G01 X-0.2964 Y2.7524  
G01 X-0.2892 Y2.7536  
G01 X-0.2823 Y2.7558  
G01 X-0.2759 Y2.7591  
G01 X-0.2700 Y2.7633  
G01 X-0.2649 Y2.7685  
G01 X-0.2607 Y2.7743  
G01 X-0.2574 Y2.7808  
G01 X-0.2551 Y2.7877  
G01 X-0.2540 Y2.7948  
G01 X-0.2540 Y2.8020  
G01 X-0.2551 Y2.8092  
G01 X-0.2574 Y2.8161  
G01 X-0.2607 Y2.8225  
G01 X-0.2649 Y2.8284  
G01 X-0.2700 Y2.8335  
G01 X-0.2759 Y2.8378  
G01 X-0.2823 Y2.8411  
G01 X-0.2892 Y2.8433  
G01 X-0.2964 Y2.8444  
G01 X-0.3036 Y2.8444  
G01 X-0.3108 Y2.8433  
G01 X-0.3177 Y2.8411  
G01 X-0.3241 Y2.8378  
G01 X-0.3300 Y2.8335  
G01 X-0.3351 Y2.8284  
G01 X-0.3393 Y2.8225  
G01 X-0.3426 Y2.8161  
G01 X-0.3441 Y2.8115  
G01 X-0.6024 Y2.8115  
G01 X-0.6070 Y2.8106  
G01 X-0.6114 Y2.8088  
G01 X-0.6153 Y2.8061  
G01 X-0.6289 Y2.7925  
G01 X-0.6314 Y2.7950  
G01 X-0.6686 Y2.7950  
G01 X-0.6950 Y2.7686  
G01 X-0.6950 Y2.7314  
G00 Z0.0500  
G00 X-0.5840 Y2.0141  
G01 Z-0.0035 F10    
G01 X-0.5840 Y1.9859  F20    
G01 X-0.5641 Y1.9660  
G01 X-0.5359 Y1.9660  
G01 X-0.5160 Y1.9859  
G01 X-0.5160 Y2.0141  
G01 X-0.5359 Y2.0340  
G01 X-0.5641 Y2.0340  
G01 X-0.5840 Y2.0141  
G00 Z0.0500  
G00 X-0.2689 Y0.1199  
G01 Z-0.0035 F10    
G01 X-0.2678 Y0.1213  F20    
G01 X-0.2666 Y0.1227  
G01 X-0.2662 Y0.1233  
G01 X-0.2658 Y0.1238  
G01 X-0.2650 Y0.1255  
G01 X-0.2641 Y0.1271  
G01 X-0.2639 Y0.1277  
G01 X-0.2148 Y0.2259  
G01 X-0.2137 Y0.2280  
G01 X-0.2137 Y0.2282  
G01 X-0.2136 Y0.2283  
G01 X-0.2130 Y0.2306  
G01 X-0.2123 Y0.2328  
G01 X-0.2123 Y0.2330  
G01 X-0.2122 Y0.2332  
G01 X-0.2121 Y0.2355  
G01 X-0.2119 Y0.2378  
G01 X-0.2119 Y0.2380  
G01 X-0.2119 Y0.2382  
G01 X-0.2122 Y0.2405  
G01 X-0.2246 Y0.3521  
G01 X-0.2247 Y0.3538  
G01 X-0.2248 Y0.3545  
G01 X-0.2249 Y0.3553  
G01 X-0.2255 Y0.3570  
G01 X-0.2259 Y0.3587  
G01 X-0.2262 Y0.3594  
G01 X-0.2265 Y0.3601  
G01 X-0.2273 Y0.3616  
G01 X-0.2280 Y0.3632  
G01 X-0.2285 Y0.3638  
G01 X-0.2289 Y0.3645  
G01 X-0.2300 Y0.3658  
G01 X-0.2310 Y0.3672  
G01 X-0.2316 Y0.3678  
G01 X-0.2321 Y0.3683  
G01 X-0.2335 Y0.3694  
G01 X-0.4526 Y0.5675  
G01 X-0.4529 Y0.5679  
G01 X-0.4545 Y0.5692  
G01 X-0.4560 Y0.5706  
G01 X-0.4564 Y0.5708  
G01 X-0.4567 Y0.5711  
G01 X-0.4585 Y0.5721  
G01 X-0.4603 Y0.5732  
G01 X-0.4607 Y0.5733  
G01 X-0.4611 Y0.5735  
G01 X-0.4631 Y0.5742  
G01 X-0.4651 Y0.5749  
G01 X-0.4655 Y0.5749  
G01 X-0.5586 Y0.6046  
G01 X-0.5586 Y0.6368  
G01 X-0.4236 Y0.7286  
G01 X-0.4220 Y0.7296  
G01 X-0.4216 Y0.7300  
G01 X-0.4211 Y0.7303  
G01 X-0.4197 Y0.7317  
G01 X-0.4183 Y0.7330  
G01 X-0.4180 Y0.7335  
G01 X-0.4176 Y0.7339  
G01 X-0.4165 Y0.7355  
G01 X-0.4154 Y0.7371  
G01 X-0.4151 Y0.7376  
G01 X-0.4148 Y0.7381  
G01 X-0.4141 Y0.7399  
G01 X-0.4133 Y0.7417  
G01 X-0.4131 Y0.7422  
G01 X-0.4129 Y0.7428  
G01 X-0.4126 Y0.7447  
G01 X-0.3507 Y1.0046  
G01 X-0.3505 Y1.0051  
G01 X-0.3501 Y1.0071  
G01 X-0.3496 Y1.0090  
G01 X-0.3496 Y1.0095  
G01 X-0.3495 Y1.0100  
G01 X-0.3495 Y1.0120  
G01 X-0.3494 Y1.0141  
G01 X-0.3495 Y1.0145  
G01 X-0.3495 Y1.1604  
G01 X-0.3494 Y1.1609  
G01 X-0.3495 Y1.1629  
G01 X-0.3495 Y1.1650  
G01 X-0.3496 Y1.1654  
G01 X-0.3496 Y1.1659  
G01 X-0.3501 Y1.1679  
G01 X-0.3505 Y1.1699  
G01 X-0.3506 Y1.1703  
G01 X-0.3507 Y1.1708  
G01 X-0.3516 Y1.1727  
G01 X-0.3524 Y1.1746  
G01 X-0.3526 Y1.1749  
